;FLAVOR:Marlin
;TIME:8704
;Filament used: 21.6127m
;Layer height: 0.3
;MINX:0.072
;MINY:9.784
;MINZ:0.2
;MAXX:233.937
;MAXY:224.855
;MAXZ:11.9
;Generated with Cura_SteamEngine 4.5.0
M140 S50
M105
M190 S50
M104 S230
M105
M109 S230
M82 ;absolute extrusion mode
; Ender 3 Custom Start G-code
G92 E0 ; Reset Extruder
G28 ; Home all axes
G1 Z2.0 F3000 ; Move Z Axis up little to prevent scratching of Heat Bed
G1 X0.1 Y20 Z0.3 F5000.0 ; Move to start position
G1 X0.1 Y200.0 Z0.3 F1500.0 E15 ; Draw the first line
G1 X0.4 Y200.0 Z0.3 F5000.0 ; Move to side a little
G1 X0.4 Y20 Z0.3 F1500.0 E30 ; Draw the second line
G92 E0 ; Reset Extruder
G1 Z2.0 F3000 ; Move Z Axis up little to prevent scratching of Heat Bed
G1 X5 Y20 Z0.3 F5000.0 ; Move over to prevent blob squish
G92 E0
G92 E0
G1 F2700 E-5
;LAYER_COUNT:40
;LAYER:0
M107
;MESH:FastShield V4.5.1.STL(1)
G0 F9000 X167.464 Y116.666 Z0.2
;TYPE:WALL-INNER
G1 F2700 E0
G1 F4200 X166.911 Y116.414 E0.03032
G1 X166.406 Y116.071 E0.06078
G1 X165.975 Y115.655 E0.09066
G1 X165.607 Y115.156 E0.12159
G1 X165.339 Y114.621 E0.15145
G1 X165.15 Y114.004 E0.18364
G1 X158.953 Y84.702 E1.67786
G1 X156.877 Y80.97 E1.89092
G1 X153.962 Y76.386 E2.16194
G1 X150.742 Y72.009 E2.43303
G1 X147.235 Y67.859 E2.7041
G1 X143.454 Y63.954 E2.97528
G1 X139.42 Y60.314 E3.24636
G1 X135.15 Y56.955 E3.51741
G1 X130.662 Y53.891 E3.78852
G1 X125.977 Y51.136 E4.05967
G1 X121.118 Y48.702 E4.3308
G1 X116.105 Y46.604 E4.60192
G1 X110.962 Y44.849 E4.87303
G1 X105.714 Y43.444 E5.14408
G1 X100.382 Y42.395 E5.41519
G1 X94.992 Y41.709 E5.68627
G1 X90.082 Y41.404 E5.9317
G1 X83.162 Y41.403 E6.27694
G1 X78.252 Y41.709 E6.52238
G1 X72.863 Y42.395 E6.79341
G1 X67.53 Y43.444 E7.06457
G1 X62.282 Y44.849 E7.33561
G1 X57.139 Y46.604 E7.60673
G1 X52.127 Y48.702 E7.8778
G1 X47.268 Y51.136 E8.14893
G1 X42.582 Y53.891 E8.42013
G1 X38.095 Y56.955 E8.6912
G1 X33.825 Y60.314 E8.96224
G1 X29.79 Y63.954 E9.23336
G1 X26.01 Y67.859 E9.5045
G1 X22.503 Y72.009 E9.77558
G1 X19.283 Y76.386 E10.04667
G1 X16.367 Y80.97 E10.31772
G1 X16.133 Y81.393 E10.34184
G1 X14.291 Y84.701 E10.53073
G1 X14.048 Y85.848 E10.58923
G1 X8.097 Y114.003 E12.02492
G1 X7.922 Y114.585 E12.05524
G1 X7.648 Y115.14 E12.08612
G1 X7.29 Y115.632 E12.11648
G1 X6.858 Y116.055 E12.14664
G1 X6.359 Y116.4 E12.17691
G1 X5.807 Y116.656 E12.20726
G1 X5.222 Y116.816 E12.23752
G1 X4.614 Y116.875 E12.268
G1 X4.004 Y116.832 E12.29851
G1 X3.42 Y116.688 E12.32851
G1 X2.86 Y116.444 E12.35899
G1 X2.354 Y116.111 E12.38921
G1 X1.91 Y115.699 E12.41943
G1 X1.74 Y115.476 E12.43342
G1 X1.866 Y114.843 E12.46562
G1 X1.871 Y114.818 E12.46689
G1 X1.911 Y114.616 E12.47716
G1 X1.952 Y114.415 E12.4874
G1 X1.987 Y114.243 E12.49616
G1 X2.807 Y110.155 E12.70417
G1 X2.962 Y110.064 E12.71314
G1 X3.301 Y109.924 E12.73143
G1 X3.262 Y110.123 E12.73209
G1 X3.238 Y110.241
G1 X2.418 Y114.329 E12.88454
G1 X2.399 Y114.504 E12.8911
G1 X2.404 Y114.714 E12.89951
G1 X2.444 Y114.931 E12.90954
G1 X2.452 Y114.955 E12.91079
G1 X2.517 Y115.133 E12.92024
G1 X2.618 Y115.325 E12.93106
G1 X2.75 Y115.497 E12.94188
G1 X2.901 Y115.645 E12.95243
G1 X3.081 Y115.773 E12.96345
G1 X3.53 Y115.991 E12.98835
G1 X4.016 Y116.131 E13.01358
G1 X4.518 Y116.183 E13.03876
G1 X5.019 Y116.148 E13.06382
G1 X5.507 Y116.028 E13.08889
G1 X5.967 Y115.825 E13.11397
G1 X6.386 Y115.546 E13.13909
G1 X6.752 Y115.197 E13.16432
G1 X7.05 Y114.79 E13.18948
G1 X7.272 Y114.342 E13.21443
G1 X7.405 Y113.896 E13.23765
G1 X13.028 Y86.151 E14.64999
G1 X13.075 Y85.251 E14.69496
G1 X13.258 Y81.966 E14.8591
G1 X13.792 Y73.283 E15.29311
G1 X14.183 Y67.073 E15.60355
G1 X14.205 Y66.718 E15.62129
G1 X13.852 Y66.757 E15.63223
G1 X9.629 Y67.231 E15.84424
G1 X9.594 Y66.919 E15.85991
G1 X14.169 Y66.406 E16.08958
G1 X14.228 Y66.399 E16.09255
G1 X15.686 Y43.306 E17.24696
G1 X16.156 Y37.344 E17.54532
G1 X16.636 Y33.923 E17.71767
G1 X17.165 Y31.99 E17.81766
G1 X17.888 Y30.371 E17.90612
G1 X18.933 Y28.768 E18.00158
G1 X20.322 Y27.198 E18.10616
G1 X22.144 Y25.659 E18.22515
G1 X24.434 Y24.237 E18.35964
G1 X27.344 Y22.907 E18.51926
G1 X30.053 Y21.918 E18.66314
G1 X31.092 Y21.572 E18.71777
G1 X32.28 Y21.193 E18.77999
G1 X39.463 Y19.195 E19.15195
G1 X45.612 Y17.763 E19.46694
G1 X55.256 Y15.831 E19.95764
G1 X56.746 Y15.574 E20.03307
G1 X56.743 Y15.551 E20.03423
G1 X56.297 Y12.826 E20.17199
G1 X56.127 Y11.842 E20.22181
G1 X56.09 Y11.631 E20.23249
G1 X56.386 Y11.58 E20.24109
G1 X56.422 Y11.79 E20.24536
G1 X56.594 Y12.774 E20.27031
G1 X57.07 Y15.497 E20.3431
G1 X66.682 Y14.203 E20.82697
G1 X76.428 Y13.373 E21.31496
G1 X81.158 Y13.133 E21.55124
G1 X92.087 Y13.133 E22.09649
G1 X96.807 Y13.372 E22.33228
G1 X106.566 Y14.204 E22.82092
G1 X109.469 Y14.59 E22.96703
G1 X116.175 Y15.495 E23.30463
G1 X116.457 Y13.855 E23.38765
G1 X116.645 Y12.78 E23.44209
G1 X116.855 Y11.579 E23.50292
G1 X117.159 Y11.631 E23.51831
G1 X116.958 Y12.834 E23.55005
G1 X116.773 Y13.909 E23.57896
G1 X116.489 Y15.549 E23.62319
G1 X116.485 Y15.568 E23.62416
G1 X118.063 Y15.844 E23.70408
G1 X127.771 Y17.792 E24.19807
G1 X133.78 Y19.195 E24.50592
G1 X141.084 Y21.229 E24.88418
G1 X142.144 Y21.569 E24.93972
G1 X143.191 Y21.918 E24.99478
G1 X145.901 Y22.907 E25.13871
G1 X148.811 Y24.237 E25.29833
G1 X151.1 Y25.659 E25.43277
G1 X152.898 Y27.169 E25.54991
G1 X154.256 Y28.695 E25.65183
G1 X155.316 Y30.301 E25.74783
G1 X156.05 Y31.911 E25.8361
G1 X156.597 Y33.877 E25.93791
G1 X157.09 Y37.347 E26.11277
G1 X157.557 Y43.292 E26.41028
G1 X159.016 Y66.399 E27.56539
G1 X159.073 Y66.405 E27.56825
G1 X163.652 Y66.918 E27.79813
G1 X163.617 Y67.23 E27.81379
G1 X159.392 Y66.757 E28.02589
G1 X159.039 Y66.718 E28.04294
G1 X159.061 Y67.073 E28.0539
G1 X159.22 Y69.624 E28.18142
G1 X159.752 Y78.054 E28.60283
G1 X159.985 Y81.925 E28.7963
G1 X160.215 Y86.141 E29.00695
G1 X165.84 Y113.894 E30.41971
G1 X165.971 Y114.34 E30.4429
G1 X166.195 Y114.791 E30.46802
G1 X166.494 Y115.198 E30.49322
G1 X166.858 Y115.546 E30.51834
G1 X167.276 Y115.825 E30.54342
G1 X167.738 Y116.028 E30.56859
G1 X168.226 Y116.148 E30.59366
G1 X168.727 Y116.183 E30.61872
G1 X169.23 Y116.131 E30.64395
G1 X169.715 Y115.991 E30.66913
G1 X170.16 Y115.774 E30.69383
G1 X170.342 Y115.647 E30.7049
G1 X170.498 Y115.493 E30.71584
G1 X170.624 Y115.327 E30.72624
G1 X170.73 Y115.132 E30.73731
G1 X170.797 Y114.939 E30.7475
G1 X170.801 Y114.926 E30.74818
G1 X170.839 Y114.722 E30.75853
G1 X170.848 Y114.502 E30.76952
G1 X170.823 Y114.319 E30.77873
G1 X169.997 Y110.237 E30.98651
G1 X169.972 Y110.114 E30.99278
G1 X169.932 Y109.92 E31.00266
G1 X170.263 Y110.054 E31.01118
G1 X170.427 Y110.149 E31.0178
G1 X171.261 Y114.229 E31.17128
G1 X171.298 Y114.409 E31.1782
G1 X171.341 Y114.619 E31.18743
G1 X171.38 Y114.807 E31.19578
G1 X171.382 Y114.82 E31.19644
G1 X171.515 Y115.466 E31.22934
G1 X171.355 Y115.676 E31.24251
G1 X170.912 Y116.095 E31.27293
G1 X170.41 Y116.429 E31.30301
G1 X169.856 Y116.675 E31.33326
G1 X169.259 Y116.826 E31.36398
G1 X168.659 Y116.875 E31.39401
G1 X168.05 Y116.821 E31.42451
G1 X167.464 Y116.666 E31.45476
G0 F9000 X167.261 Y117.233
;TYPE:WALL-OUTER
G1 F4200 X166.618 Y116.94 E31.49001
G1 X166.026 Y116.538 E31.52571
G1 X165.521 Y116.05 E31.56075
G1 X165.095 Y115.472 E31.59657
G1 X164.779 Y114.843 E31.63169
G1 X164.569 Y114.155 E31.66757
G1 X158.385 Y84.914 E33.15868
G1 X158.019 Y84.254 E33.19633
G1 X156.361 Y81.277 E33.36634
G1 X153.467 Y76.725 E33.63545
G1 X150.271 Y72.381 E33.90451
G1 X146.79 Y68.262 E34.17356
G1 X143.037 Y64.386 E34.44273
G1 X139.033 Y60.773 E34.71179
G1 X134.795 Y57.439 E34.98081
G1 X130.34 Y54.398 E35.24992
G1 X125.69 Y51.663 E35.51906
G1 X120.868 Y49.248 E35.78812
G1 X115.892 Y47.165 E36.05724
G1 X110.787 Y45.423 E36.32635
G1 X105.578 Y44.029 E36.59537
G1 X100.286 Y42.988 E36.86445
G1 X94.935 Y42.307 E37.13357
G1 X90.063 Y42.004 E37.3771
G1 X83.181 Y42.003 E37.72045
G1 X78.309 Y42.307 E37.96399
G1 X72.959 Y42.988 E38.23305
G1 X67.666 Y44.029 E38.50218
G1 X62.457 Y45.423 E38.7712
G1 X57.352 Y47.165 E39.04031
G1 X52.377 Y49.248 E39.30939
G1 X47.555 Y51.663 E39.57845
G1 X42.904 Y54.398 E39.84763
G1 X38.45 Y57.439 E40.1167
G1 X34.212 Y60.773 E40.38572
G1 X30.207 Y64.386 E40.65482
G1 X26.455 Y68.262 E40.92395
G1 X22.974 Y72.381 E41.19301
G1 X19.778 Y76.725 E41.46207
G1 X16.883 Y81.276 E41.73116
G1 X16.657 Y81.685 E41.75447
G1 X14.859 Y84.914 E41.93886
G1 X14.635 Y85.972 E41.99281
G1 X8.68 Y114.147 E43.42953
G1 X8.48 Y114.81 E43.46407
G1 X8.164 Y115.45 E43.49968
G1 X7.747 Y116.024 E43.53508
G1 X7.241 Y116.52 E43.57043
G1 X6.656 Y116.923 E43.60587
G1 X6.013 Y117.222 E43.64125
G1 X5.333 Y117.408 E43.67642
G1 X4.618 Y117.477 E43.71226
G1 X3.912 Y117.427 E43.74757
G1 X3.228 Y117.259 E43.78271
G1 X2.574 Y116.974 E43.8183
G1 X1.983 Y116.586 E43.85357
G1 X1.464 Y116.103 E43.88894
G1 X1.099 Y115.624 E43.91899
G1 X2.272 Y109.774 E44.21665
G1 X2.691 Y109.527 E44.24092
G1 X3.251 Y109.295 E44.27116
G1 X3.844 Y109.146 E44.30167
G1 X4.073 Y109.123 E44.31315
G1 X3.012 Y114.421 E44.58271
G1 X3 Y114.53 E44.58819
G1 X3.003 Y114.653 E44.59432
G1 X3.025 Y114.774 E44.60046
G1 X3.067 Y114.89 E44.60661
G1 X3.125 Y115 E44.61282
G1 X3.2 Y115.098 E44.61898
G1 X3.287 Y115.183 E44.62504
G1 X3.388 Y115.255 E44.63123
G1 X3.746 Y115.429 E44.65109
G1 X4.131 Y115.54 E44.67108
G1 X4.528 Y115.581 E44.69099
G1 X4.926 Y115.553 E44.7109
G1 X5.313 Y115.458 E44.73078
G1 X5.678 Y115.297 E44.75068
G1 X6.01 Y115.076 E44.77058
G1 X6.299 Y114.8 E44.79052
G1 X6.535 Y114.477 E44.81047
G1 X6.712 Y114.121 E44.83031
G1 X6.822 Y113.751 E44.84957
G1 X12.431 Y86.075 E46.2584
G1 X12.476 Y85.218 E46.30121
G1 X12.659 Y81.929 E46.46556
G1 X13.193 Y73.246 E46.89957
G1 X13.562 Y67.394 E47.19211
G1 X9.1 Y67.894 E47.41611
G1 X8.931 Y66.39 E47.49162
G1 X13.661 Y65.859 E47.72908
G1 X15.088 Y43.259 E48.85885
G1 X15.559 Y37.28 E49.15806
G1 X16.048 Y33.796 E49.33358
G1 X16.598 Y31.788 E49.43745
G1 X17.36 Y30.082 E49.53067
G1 X18.452 Y28.406 E49.63047
G1 X19.9 Y26.77 E49.73947
G1 X21.792 Y25.171 E49.86306
G1 X24.151 Y23.707 E50.00157
G1 X27.12 Y22.35 E50.16443
G1 X29.847 Y21.354 E50.30927
G1 X30.91 Y21 E50.36517
G1 X32.102 Y20.62 E50.42759
G1 X39.306 Y18.616 E50.80064
G1 X45.488 Y17.176 E51.11732
G1 X55.147 Y15.241 E51.60878
G1 X56.058 Y15.084 E51.6549
G1 X55.705 Y12.925 E51.76405
G1 X55.397 Y11.142 E51.85432
G1 X56.877 Y10.886 E51.92925
G1 X57.013 Y11.688 E51.96984
G1 X57.562 Y14.825 E52.12872
G1 X66.613 Y13.607 E52.58435
G1 X76.377 Y12.775 E53.07324
G1 X81.148 Y12.533 E53.31157
G1 X92.097 Y12.533 E53.85782
G1 X96.858 Y12.774 E54.09565
G1 X106.632 Y13.607 E54.58505
G1 X109.549 Y13.995 E54.73186
G1 X115.682 Y14.823 E55.04061
G1 X115.866 Y13.752 E55.09483
G1 X116.367 Y10.886 E55.23998
G1 X117.85 Y11.142 E55.31506
G1 X117.549 Y12.936 E55.40581
G1 X117.178 Y15.08 E55.51437
G1 X118.166 Y15.253 E55.56441
G1 X127.895 Y17.205 E56.05947
G1 X133.937 Y18.616 E56.36901
G1 X141.245 Y20.651 E56.74748
G1 X142.334 Y21 E56.80453
G1 X143.397 Y21.354 E56.86043
G1 X146.125 Y22.35 E57.00532
G1 X149.094 Y23.707 E57.16818
G1 X151.452 Y25.171 E57.30665
G1 X153.318 Y26.739 E57.42825
G1 X154.735 Y28.331 E57.53458
G1 X155.842 Y30.007 E57.63479
G1 X156.615 Y31.704 E57.72782
G1 X157.185 Y33.753 E57.83393
G1 X157.686 Y37.28 E58.01166
G1 X158.156 Y43.254 E58.31062
G1 X159.583 Y65.859 E59.44064
G1 X164.315 Y66.389 E59.67819
G1 X164.146 Y67.893 E59.7537
G1 X159.682 Y67.394 E59.9778
G1 X159.819 Y69.587 E60.08742
G1 X160.351 Y78.018 E60.50888
G1 X160.584 Y81.892 E60.70251
G1 X160.812 Y86.065 E60.91101
G1 X166.423 Y113.75 E62.3203
G1 X166.532 Y114.121 E62.33959
G1 X166.709 Y114.478 E62.35947
G1 X166.946 Y114.8 E62.37942
G1 X167.235 Y115.076 E62.39936
G1 X167.566 Y115.297 E62.41921
G1 X167.932 Y115.458 E62.43916
G1 X168.319 Y115.553 E62.45904
G1 X168.717 Y115.581 E62.47895
G1 X169.115 Y115.54 E62.49891
G1 X169.498 Y115.429 E62.5188
G1 X169.855 Y115.255 E62.53862
G1 X169.957 Y115.184 E62.54482
G1 X170.046 Y115.096 E62.55106
G1 X170.119 Y115 E62.55708
G1 X170.179 Y114.89 E62.56333
G1 X170.219 Y114.773 E62.5695
G1 X170.241 Y114.655 E62.57549
G1 X170.246 Y114.53 E62.58173
G1 X170.231 Y114.419 E62.58731
G1 X169.158 Y109.12 E62.85705
G1 X169.376 Y109.141 E62.86797
G1 X169.96 Y109.284 E62.89797
G1 X170.529 Y109.514 E62.92859
G1 X170.961 Y109.768 E62.95359
G1 X172.157 Y115.612 E63.25119
G1 X171.806 Y116.076 E63.28022
G1 X171.289 Y116.564 E63.31569
G1 X170.697 Y116.958 E63.35117
G1 X170.051 Y117.245 E63.38643
G1 X169.36 Y117.42 E63.422
G1 X168.655 Y117.477 E63.45728
G1 X167.947 Y117.415 E63.49274
G1 X167.261 Y117.233 E63.52815
G0 F9000 X167.483 Y116.612
G1 F2700 E58.52815
G0 F9000 X169.211 Y116.558
G0 X169.771 Y116.417
G0 X170.278 Y116.192
G0 X170.743 Y115.882
G0 X171.221 Y115.398
G0 X171.101 Y114.961
G0 X168.732 Y116.455
G0 X167.022 Y115.342
G0 X166.69 Y115.025
G0 X166.418 Y114.655
G0 X166.157 Y113.989
G0 X159.921 Y84.617
G0 X159.543 Y84.637
;TYPE:SKIN
G1 F2700 E63.52815
G1 F4200 X159.512 Y84.493 E63.5355
G1 X157.384 Y80.668 E63.75387
G1 X154.449 Y76.052 E64.02678
G1 X151.206 Y71.643 E64.29984
G1 X147.673 Y67.463 E64.57289
G1 X143.864 Y63.529 E64.84608
G1 X139.8 Y59.862 E65.11917
G1 X135.5 Y56.479 E65.39213
G1 X130.978 Y53.393 E65.66527
G1 X126.259 Y50.617 E65.93841
G1 X121.364 Y48.165 E66.21155
G1 X116.314 Y46.052 E66.48466
G1 X111.133 Y44.284 E66.75778
G1 X105.848 Y42.869 E67.03073
G1 X100.476 Y41.813 E67.30387
G1 X95.047 Y41.121 E67.57692
G1 X90.1 Y40.814 E67.8242
G1 X83.144 Y40.813 E68.17124
G1 X78.197 Y41.121 E68.41852
G1 X72.769 Y41.813 E68.69152
G1 X67.396 Y42.869 E68.96471
G1 X62.111 Y44.284 E69.23766
G1 X56.93 Y46.052 E69.51078
G1 X51.881 Y48.165 E69.78384
G1 X46.986 Y50.617 E70.05698
G1 X42.266 Y53.393 E70.33017
G1 X37.745 Y56.479 E70.60326
G1 X33.445 Y59.862 E70.87622
G1 X29.38 Y63.529 E71.14935
G1 X25.572 Y67.463 E71.42251
G1 X22.039 Y71.643 E71.69556
G1 X18.796 Y76.052 E71.96862
G1 X15.86 Y80.669 E72.24159
G1 X13.732 Y84.492 E72.45988
G1 X13.701 Y84.64 E72.46743
G1 X13.855 Y81.848 E72.60693
G1 X14.38 Y73.319 E73.03325
G1 X14.78 Y66.959 E73.35118
G1 X14.784 Y66.959 E73.35138
G1 X16.274 Y43.353 E74.53143
G1 X16.744 Y37.393 E74.8297
G1 X17.215 Y34.042 E74.99852
G1 X17.721 Y32.191 E75.09426
G1 X18.408 Y30.652 E75.17834
G1 X19.402 Y29.129 E75.26908
G1 X20.735 Y27.622 E75.36945
G1 X22.496 Y26.135 E75.48444
G1 X24.706 Y24.762 E75.61425
G1 X27.579 Y23.449 E75.77184
G1 X30.24 Y22.478 E75.91316
G1 X31.279 Y22.132 E75.96779
G1 X32.454 Y21.757 E76.02933
G1 X39.611 Y19.765 E76.39996
G1 X45.728 Y18.341 E76.7133
G1 X55.356 Y16.413 E77.20318
G1 X57.43 Y16.055 E77.30818
G1 X57.428 Y16.044 E77.30874
G1 X66.732 Y14.791 E77.77711
G1 X76.458 Y13.963 E78.2641
G1 X81.188 Y13.723 E78.50038
G1 X92.057 Y13.723 E79.04264
G1 X96.777 Y13.962 E79.27842
G1 X106.516 Y14.792 E79.76606
G1 X109.391 Y15.174 E79.91076
G1 X115.81 Y16.04 E80.23391
G1 X115.809 Y16.049 E80.23436
G1 X118.004 Y16.433 E80.34553
G1 X127.655 Y18.37 E80.83662
G1 X133.63 Y19.765 E81.14273
G1 X140.903 Y21.791 E81.5194
G1 X141.957 Y22.129 E81.57462
G1 X143.004 Y22.478 E81.62968
G1 X145.666 Y23.449 E81.77105
G1 X148.539 Y24.762 E81.92864
G1 X150.748 Y26.135 E82.0584
G1 X152.487 Y27.596 E82.17172
G1 X153.789 Y29.058 E82.26939
G1 X154.798 Y30.587 E82.36078
G1 X155.495 Y32.115 E82.44457
G1 X156.018 Y33.996 E82.54198
G1 X156.503 Y37.41 E82.71401
G1 X156.969 Y43.329 E83.01022
G1 X158.46 Y66.959 E84.19147
G1 X158.463 Y66.959 E84.19162
G1 X159.164 Y78.091 E84.7481
G1 X159.381 Y81.693 E84.92813
G1 X159.543 Y84.637 E85.07523
G1 F2700 E80.07523
G0 F9000 X159.921 Y84.618
G0 X166.29 Y115.377
G0 X169.813 Y116.244
G0 X171.101 Y114.961
G0 X171.221 Y115.398
G0 X170.743 Y115.882
G0 X170.278 Y116.192
G0 X169.771 Y116.417
G0 X169.211 Y116.558
G0 X168.661 Y116.604
G0 X168.098 Y116.553
G0 X167.555 Y116.41
G0 X167.041 Y116.175
G0 X166.578 Y115.862
G0 X166.178 Y115.476
G0 X165.839 Y115.015
G0 X165.59 Y114.518
G0 X165.412 Y113.937
G0 X159.21 Y84.606
G0 X154.185 Y76.233
G0 X154.195 Y76.177
G0 X152.67 Y77.27
G0 X163.88 Y115.201
G0 X164.272 Y115.982
G0 X164.79 Y116.685
G0 X165.418 Y117.292
G0 X166.143 Y117.783
G0 X166.937 Y118.145
G0 X167.782 Y118.369
G0 X168.651 Y118.445
G0 X169.52 Y118.375
G0 X170.366 Y118.16
G0 X171.164 Y117.806
