;FLAVOR:Marlin
;TIME:1559
;Filament used: 3.63766m
;Layer height: 0.3
;MINX:33.509
;MINY:64.187
;MINZ:0.2
;MAXX:201.491
;MAXY:170.859
;MAXZ:11.9
;Generated with Cura_SteamEngine 4.5.0
M140 S50
M105
M190 S50
M104 S230
M105
M109 S230
M82 ;absolute extrusion mode
; Ender 3 Custom Start G-code
G92 E0 ; Reset Extruder
G28 ; Home all axes
G1 Z2.0 F3000 ; Move Z Axis up little to prevent scratching of Heat Bed
G1 X0.1 Y20 Z0.3 F5000.0 ; Move to start position
G1 X0.1 Y200.0 Z0.3 F1500.0 E15 ; Draw the first line
G1 X0.4 Y200.0 Z0.3 F5000.0 ; Move to side a little
G1 X0.4 Y20 Z0.3 F1500.0 E30 ; Draw the second line
G92 E0 ; Reset Extruder
G1 Z2.0 F3000 ; Move Z Axis up little to prevent scratching of Heat Bed
G1 X5 Y20 Z0.3 F5000.0 ; Move over to prevent blob squish
G92 E0
G92 E0
G1 F2700 E-5
;LAYER_COUNT:40
;LAYER:0
M107
;MESH:FastShield V4.4.3.STL
G0 F9000 X53.019 Y79.249 Z0.2
;TYPE:WALL-INNER
G1 F2700 E0
G1 F4200 X55.311 Y77.825 E0.13462
G1 X58.204 Y76.503 E0.29331
G1 X60.931 Y75.506 E0.43817
G1 X61.978 Y75.157 E0.49323
G1 X63.033 Y74.819 E0.5485
G1 X70.228 Y72.812 E0.92116
G1 X76.788 Y71.284 E1.2572
G1 X86.474 Y69.358 E1.7499
G1 X87.624 Y69.164 E1.80808
G1 X87.623 Y69.159 E1.80834
G1 X97.202 Y67.831 E2.29081
G1 X106.88 Y66.988 E2.77547
G1 X112.038 Y66.72 E3.03315
G1 X122.962 Y66.72 E3.57815
G1 X128.12 Y66.988 E3.83583
G1 X137.798 Y67.831 E4.3205
G1 X147.388 Y69.16 E4.80352
G1 X148.647 Y69.38 E4.86728
G1 X158.22 Y71.285 E5.35425
G1 X164.772 Y72.812 E5.68989
G1 X171.909 Y74.802 E6.05954
G1 X173.029 Y75.16 E6.1182
G1 X174.069 Y75.506 E6.17288
G1 X176.796 Y76.503 E6.31774
G1 X179.693 Y77.827 E6.47665
G1 X181.978 Y79.246 E6.61084
G1 X183.79 Y80.77 E6.72897
G1 X185.142 Y82.293 E6.83057
G1 X186.205 Y83.907 E6.92699
G1 X186.933 Y85.513 E7.01496
G1 X187.479 Y87.487 E7.11714
G1 X187.969 Y90.945 E7.29138
G1 X188.435 Y96.88 E7.58839
G1 X189.894 Y119.987 E8.7435
G1 X189.95 Y119.993 E8.74631
G1 X190.304 Y120.033 E8.76408
G1 X194.53 Y120.505 E8.97623
G1 X194.495 Y120.818 E8.99194
G1 X190.269 Y120.345 E9.15363
G1 X189.916 Y120.306 E9.16712
G1 X189.938 Y120.661 E9.17808
G1 X190.629 Y131.642 E9.72701
G1 X190.862 Y135.513 E9.92049
G1 X191.093 Y139.729 E10.13114
G1 X196.717 Y167.481 E11.54383
G1 X196.843 Y167.913 E11.56629
G1 X197.056 Y168.352 E11.59063
G1 X197.341 Y168.749 E11.61501
G1 X197.687 Y169.092 E11.63932
G1 X198.081 Y169.37 E11.66337
G1 X198.294 Y169.475 E11.67522
G1 X198.518 Y169.537 E11.68682
G1 X198.744 Y169.565 E11.69818
G1 X198.975 Y169.553 E11.70972
G1 X199.199 Y169.506 E11.72114
G1 X199.41 Y169.422 E11.73247
G1 X199.609 Y169.305 E11.74399
G1 X199.786 Y169.154 E11.75559
G1 X199.932 Y168.983 E11.76681
G1 X200.053 Y168.784 E11.77843
G1 X200.138 Y168.566 E11.7901
G1 X200.185 Y168.344 E11.80142
G1 X200.197 Y168.112 E11.81301
G1 X200.172 Y167.918 E11.82277
G1 X199.289 Y163.558 E12.04471
G1 X199.241 Y163.317 E12.05697
G1 X199.236 Y163.296 E12.05805
G1 X199.449 Y163.274 E12.06425
G1 X199.695 Y163.283 E12.07343
G1 X199.938 Y163.293 E12.08556
G1 X200.844 Y167.71 E12.31052
G1 X200.887 Y168.073 E12.32875
G1 X200.873 Y168.427 E12.34643
G1 X200.803 Y168.762 E12.3635
G1 X200.678 Y169.084 E12.38073
G1 X200.502 Y169.378 E12.39783
G1 X200.287 Y169.635 E12.41455
G1 X200.018 Y169.864 E12.43217
G1 X199.725 Y170.041 E12.44925
G1 X199.405 Y170.167 E12.46641
G1 X199.07 Y170.24 E12.48351
G1 X198.721 Y170.257 E12.50094
G1 X198.38 Y170.219 E12.51806
G1 X198.053 Y170.124 E12.53505
G1 X197.743 Y169.977 E12.55217
G1 X197.256 Y169.636 E12.58183
G1 X196.83 Y169.218 E12.6116
G1 X196.481 Y168.739 E12.64117
G1 X196.209 Y168.189 E12.67178
G1 X196.03 Y167.599 E12.70254
G1 X189.832 Y138.294 E14.19692
G1 X189.456 Y137.614 E14.23568
G1 X187.755 Y134.558 E14.41018
G1 X184.84 Y129.974 E14.6812
G1 X181.62 Y125.597 E14.95229
G1 X178.113 Y121.447 E15.22336
G1 X174.332 Y117.542 E15.49454
G1 X170.297 Y113.902 E15.76566
G1 X166.028 Y110.542 E16.03669
G1 X161.54 Y107.478 E16.30781
G1 X156.855 Y104.723 E16.57896
G1 X151.995 Y102.29 E16.85011
G1 X146.984 Y100.191 E17.12116
G1 X141.84 Y98.437 E17.3923
G1 X136.592 Y97.031 E17.66336
G1 X131.259 Y95.983 E17.93451
G1 X125.87 Y95.297 E18.20554
G1 X120.959 Y94.992 E18.45102
G1 X119.706 Y94.991 E18.51354
G1 X114.042 Y94.992 E18.79611
G1 X113.538 Y95.022 E18.8213
G1 X109.131 Y95.298 E19.0416
G1 X103.741 Y95.983 E19.31267
G1 X98.408 Y97.031 E19.58382
G1 X93.16 Y98.437 E19.85488
G1 X88.016 Y100.191 E20.12603
G1 X83.005 Y102.29 E20.39707
G1 X78.145 Y104.723 E20.66823
G1 X73.46 Y107.478 E20.93938
G1 X68.972 Y110.542 E21.21049
G1 X64.703 Y113.902 E21.48153
G1 X60.668 Y117.542 E21.75264
G1 X56.887 Y121.447 E22.02382
G1 X53.38 Y125.597 E22.29489
G1 X50.16 Y129.974 E22.56599
G1 X47.244 Y134.558 E22.83704
G1 X47.01 Y134.981 E22.86115
G1 X45.169 Y138.289 E23.05003
G1 X44.926 Y139.435 E23.10847
G1 X38.98 Y167.573 E24.54328
G1 X38.8 Y168.173 E24.57454
G1 X38.54 Y168.705 E24.60408
G1 X38.189 Y169.195 E24.63415
G1 X37.765 Y169.617 E24.66399
G1 X37.276 Y169.963 E24.69388
G1 X36.961 Y170.116 E24.71135
G1 X36.636 Y170.213 E24.72827
G1 X36.289 Y170.255 E24.74571
G1 X35.945 Y170.242 E24.76288
G1 X35.604 Y170.171 E24.78026
G1 X35.294 Y170.051 E24.79685
G1 X34.993 Y169.872 E24.81432
G1 X34.731 Y169.652 E24.83139
G1 X34.508 Y169.391 E24.84851
G1 X34.327 Y169.092 E24.86595
G1 X34.203 Y168.777 E24.88284
G1 X34.129 Y168.441 E24.9
G1 X34.112 Y168.091 E24.91749
G1 X34.153 Y167.721 E24.93606
G1 X35.05 Y163.297 E25.16126
G1 X35.286 Y163.285 E25.17305
G1 X35.523 Y163.274 E25.18489
G1 X35.752 Y163.295 E25.19636
G1 X35.748 Y163.318
G1 X35.702 Y163.55 E25.20528
G1 X34.827 Y167.919 E25.42758
G1 X34.803 Y168.112 E25.43729
G1 X34.815 Y168.344 E25.44888
G1 X34.862 Y168.566 E25.4602
G1 X34.947 Y168.784 E25.47187
G1 X35.068 Y168.983 E25.48349
G1 X35.214 Y169.154 E25.49471
G1 X35.391 Y169.305 E25.50631
G1 X35.59 Y169.422 E25.51783
G1 X35.801 Y169.506 E25.52916
G1 X36.025 Y169.553 E25.54058
G1 X36.256 Y169.565 E25.55212
G1 X36.482 Y169.537 E25.56348
G1 X36.706 Y169.475 E25.57508
G1 X36.919 Y169.37 E25.58693
G1 X37.313 Y169.092 E25.61098
G1 X37.659 Y168.749 E25.63529
G1 X37.944 Y168.352 E25.65967
G1 X38.157 Y167.913 E25.68401
G1 X38.283 Y167.481 E25.70647
G1 X43.906 Y139.739 E27.11866
G1 X44.041 Y137.208 E27.24511
G1 X44.136 Y135.554 E27.32777
G1 X44.669 Y126.871 E27.76178
G1 X45.06 Y120.661 E28.07221
G1 X45.082 Y120.306 E28.08996
G1 X44.729 Y120.345 E28.1009
G1 X40.506 Y120.819 E28.31291
G1 X40.471 Y120.506 E28.32862
G1 X45.047 Y119.994 E28.55835
G1 X45.106 Y119.987 E28.56131
G1 X46.564 Y96.894 E29.71572
G1 X47.033 Y90.933 E30.01403
G1 X47.508 Y87.534 E30.18526
G1 X48.037 Y85.593 E30.28563
G1 X48.757 Y83.976 E30.37393
G1 X49.802 Y82.367 E30.46965
G1 X51.181 Y80.802 E30.57372
G1 X53.019 Y79.249 E30.69377
G1 F2700 E25.69377
G0 F9000 X55.439 Y78.064
G0 X58.312 Y76.751
G0 X70.114 Y72.417
G0 X87.14 Y68.818
G0 X86.968 Y65.218
G1 F2700 E30.69377
G1 F4200 X87.265 Y65.166 E30.70881
G1 X87.472 Y66.36 E30.76927
G1 X87.641 Y67.335 E30.81863
G1 X87.334 Y67.388 E30.83418
G1 X87.175 Y66.412 E30.85931
G1 X86.968 Y65.218 E30.88967
G1 F2700 E25.88967
G0 F9000 X87.094 Y67.857
G0 X87.24 Y68.787
G0 X112.035 Y66.309
G0 X137.802 Y67.408
G0 X147.76 Y68.787
G0 X147.891 Y67.95
G0 X147.734 Y65.165
G1 F2700 E30.88967
G1 F4200 X148.037 Y65.218 E30.90502
G1 X147.669 Y67.388 E31.01482
G1 X147.36 Y67.335 E31.03046
G1 X147.734 Y65.165 E31.08732
G1 F2700 E26.08732
G0 F9000 X148.24 Y66.493
G0 X147.851 Y68.813
G0 X164.698 Y73.073
G0 X172.943 Y75.416
G0 X176.688 Y76.751
G0 X179.565 Y78.066
G0 X181.818 Y79.465
G0 X183.599 Y80.964
G0 X184.926 Y82.458
G0 X185.97 Y84.042
G0 X186.676 Y85.602
G0 X187.214 Y87.545
G0 X187.7 Y90.976
G0 X188.165 Y96.898
G0 X190.824 Y139.763
G0 X197.512 Y169.3
G0 X200.152 Y169.142
G0 X199.582 Y163.566
G0 X199.708 Y163.564
G0 X200.615 Y168.083
G0 X200.544 Y168.682
G0 X200.282 Y169.219
G0 X199.857 Y169.645
G0 X199.328 Y169.907
G0 X198.727 Y169.985
G0 X198.564 Y169.953
G0 X196.562 Y169.445
G0 X196.374 Y169.61
;TYPE:WALL-OUTER
G1 F2700 E31.08732
G1 F4200 X195.964 Y169.047 E31.12207
G1 X195.651 Y168.416 E31.15721
G1 X195.448 Y167.747 E31.19209
G1 X189.264 Y138.506 E32.68319
G1 X188.931 Y137.905 E32.71747
G1 X187.239 Y134.865 E32.89105
G1 X184.345 Y130.313 E33.16016
G1 X181.149 Y125.969 E33.42922
G1 X177.668 Y121.85 E33.69827
G1 X173.915 Y117.974 E33.96744
G1 X169.91 Y114.361 E34.23654
G1 X165.673 Y111.026 E34.50555
G1 X161.218 Y107.985 E34.77466
G1 X156.568 Y105.25 E35.0438
G1 X151.745 Y102.836 E35.31288
G1 X146.771 Y100.752 E35.58193
G1 X141.665 Y99.011 E35.85107
G1 X136.456 Y97.616 E36.12011
G1 X131.163 Y96.576 E36.38923
G1 X125.813 Y95.895 E36.65829
G1 X120.94 Y95.592 E36.90188
G1 X119.706 Y95.591 E36.96344
G1 X114.06 Y95.592 E37.24512
G1 X113.575 Y95.621 E37.26936
G1 X109.188 Y95.896 E37.48866
G1 X103.837 Y96.576 E37.75777
G1 X98.544 Y97.616 E38.02689
G1 X93.335 Y99.011 E38.29592
G1 X88.229 Y100.752 E38.56506
G1 X83.255 Y102.836 E38.83412
G1 X78.432 Y105.25 E39.10319
G1 X73.782 Y107.985 E39.37234
G1 X69.327 Y111.026 E39.64144
G1 X65.09 Y114.361 E39.91045
G1 X61.085 Y117.974 E40.17955
G1 X57.332 Y121.85 E40.44872
G1 X53.851 Y125.969 E40.71778
G1 X50.655 Y130.313 E40.98684
G1 X47.76 Y134.864 E41.25593
G1 X47.534 Y135.273 E41.27924
G1 X45.737 Y138.502 E41.46361
G1 X45.513 Y139.559 E41.51751
G1 X39.561 Y167.724 E42.9537
G1 X39.362 Y168.39 E42.98838
G1 X39.057 Y169.014 E43.02303
G1 X38.648 Y169.584 E43.05803
G1 X38.149 Y170.081 E43.09317
G1 X37.584 Y170.481 E43.12771
G1 X37.18 Y170.677 E43.15011
G1 X36.755 Y170.803 E43.17223
G1 X36.314 Y170.857 E43.19439
G1 X35.872 Y170.84 E43.21646
G1 X35.438 Y170.75 E43.23857
G1 X35.029 Y170.591 E43.26046
G1 X34.645 Y170.363 E43.28275
G1 X34.306 Y170.078 E43.30484
G1 X34.019 Y169.743 E43.32685
G1 X33.789 Y169.362 E43.34905
G1 X33.627 Y168.952 E43.37105
G1 X33.533 Y168.521 E43.39305
G1 X33.51 Y168.073 E43.41543
G1 X33.56 Y167.626 E43.43787
G1 X34.543 Y162.777 E43.68471
G1 X34.941 Y162.702 E43.70492
G1 X35.541 Y162.673 E43.73489
G1 X36.138 Y162.727 E43.76479
G1 X36.462 Y162.805 E43.78142
G1 X35.42 Y168.015 E44.0465
G1 X35.405 Y168.134 E44.05248
G1 X35.412 Y168.266 E44.05907
G1 X35.439 Y168.394 E44.0656
G1 X35.487 Y168.517 E44.07219
G1 X35.556 Y168.63 E44.07879
G1 X35.64 Y168.729 E44.08527
G1 X35.74 Y168.814 E44.09182
G1 X35.854 Y168.881 E44.09842
G1 X35.975 Y168.929 E44.10491
G1 X36.103 Y168.956 E44.11144
G1 X36.235 Y168.963 E44.11803
G1 X36.365 Y168.947 E44.12457
G1 X36.492 Y168.912 E44.13114
G1 X36.612 Y168.853 E44.13781
G1 X36.926 Y168.631 E44.15699
G1 X37.201 Y168.359 E44.17629
G1 X37.426 Y168.044 E44.1956
G1 X37.595 Y167.696 E44.21491
G1 X37.7 Y167.337 E44.23357
G1 X43.309 Y139.663 E45.6423
G1 X43.442 Y137.174 E45.76665
G1 X43.537 Y135.517 E45.84946
G1 X44.07 Y126.834 E46.28347
G1 X44.439 Y120.982 E46.57601
G1 X39.977 Y121.482 E46.80001
G1 X39.808 Y119.977 E46.87557
G1 X44.539 Y119.447 E47.11307
G1 X45.966 Y96.847 E48.24284
G1 X46.436 Y90.869 E48.542
G1 X46.92 Y87.41 E48.71625
G1 X47.469 Y85.393 E48.82054
G1 X48.228 Y83.688 E48.91365
G1 X49.323 Y82.002 E49.01395
G1 X50.758 Y80.375 E49.12218
G1 X52.67 Y78.759 E49.24708
G1 X55.027 Y77.295 E49.38551
G1 X57.975 Y75.947 E49.54723
G1 X60.725 Y74.942 E49.69331
G1 X61.788 Y74.588 E49.7492
G1 X62.872 Y74.241 E49.80599
G1 X70.071 Y72.233 E50.17886
G1 X76.659 Y70.698 E50.51634
G1 X86.374 Y68.767 E51.0105
G1 X86.936 Y68.672 E51.03894
G1 X86.583 Y66.512 E51.14813
G1 X86.274 Y64.729 E51.23841
G1 X87.754 Y64.473 E51.31334
G1 X88.334 Y67.823 E51.48296
G1 X87.297 Y68.003 E51.53547
G1 X87.388 Y68.586 E51.56491
G1 X97.147 Y67.233 E52.05645
G1 X106.828 Y66.39 E52.54126
G1 X112.026 Y66.12 E52.80094
G1 X122.974 Y66.12 E53.34714
G1 X128.172 Y66.39 E53.60682
G1 X137.853 Y67.233 E54.09163
G1 X147.612 Y68.586 E54.58317
G1 X147.703 Y68.003 E54.61261
G1 X146.667 Y67.823 E54.66507
G1 X147.245 Y64.472 E54.83472
G1 X148.728 Y64.729 E54.90981
G1 X148.427 Y66.524 E55.00061
G1 X148.056 Y68.668 E55.10916
G1 X148.75 Y68.789 E55.14431
G1 X158.35 Y70.7 E55.63265
G1 X164.929 Y72.233 E55.96967
G1 X172.092 Y74.23 E56.34067
G1 X173.212 Y74.588 E56.39933
G1 X174.275 Y74.942 E56.45522
G1 X177.025 Y75.947 E56.6013
G1 X179.973 Y77.295 E56.76302
G1 X182.33 Y78.758 E56.90142
G1 X184.211 Y80.34 E57.02404
G1 X185.619 Y81.927 E57.12989
G1 X186.731 Y83.615 E57.23073
G1 X187.499 Y85.308 E57.32348
G1 X188.068 Y87.366 E57.43001
G1 X188.565 Y90.878 E57.60697
G1 X189.034 Y96.842 E57.90543
G1 X190.461 Y119.447 E59.03545
G1 X195.193 Y119.976 E59.273
G1 X195.024 Y121.481 E59.34855
G1 X190.56 Y120.982 E59.57265
G1 X191.228 Y131.606 E60.10373
G1 X191.461 Y135.48 E60.29735
G1 X191.69 Y139.653 E60.50586
G1 X197.3 Y167.337 E61.91509
G1 X197.405 Y167.696 E61.93375
G1 X197.574 Y168.044 E61.95306
G1 X197.799 Y168.359 E61.97237
G1 X198.074 Y168.631 E61.99167
G1 X198.388 Y168.853 E62.01085
G1 X198.508 Y168.912 E62.01752
G1 X198.635 Y168.947 E62.02409
G1 X198.765 Y168.963 E62.03063
G1 X198.897 Y168.956 E62.03722
G1 X199.025 Y168.929 E62.04375
G1 X199.146 Y168.881 E62.05024
G1 X199.26 Y168.814 E62.05684
G1 X199.36 Y168.729 E62.06339
G1 X199.444 Y168.63 E62.06987
G1 X199.513 Y168.517 E62.07647
G1 X199.561 Y168.394 E62.08306
G1 X199.588 Y168.266 E62.08959
G1 X199.595 Y168.134 E62.09618
G1 X199.58 Y168.015 E62.10216
G1 X198.525 Y162.808 E62.36722
G1 X198.835 Y162.733 E62.38313
G1 X199.434 Y162.673 E62.41317
G1 X200.031 Y162.696 E62.44297
G1 X200.444 Y162.774 E62.46394
G1 X201.437 Y167.612 E62.71034
G1 X201.489 Y168.052 E62.73245
G1 X201.471 Y168.497 E62.75467
G1 X201.38 Y168.932 E62.77684
G1 X201.219 Y169.347 E62.79905
G1 X200.992 Y169.728 E62.82117
G1 X200.712 Y170.061 E62.84288
G1 X200.371 Y170.351 E62.86521
G1 X199.991 Y170.581 E62.88737
G1 X199.579 Y170.744 E62.90948
G1 X199.152 Y170.836 E62.93127
G1 X198.702 Y170.858 E62.95375
G1 X198.263 Y170.809 E62.97578
G1 X197.842 Y170.687 E62.99765
G1 X197.44 Y170.497 E63.01984
G1 X196.871 Y170.098 E63.05451
G1 X196.374 Y169.61 E63.08926
G0 F9000 X196.873 Y169.179
G1 F2700 E58.08926
G0 F9000 X196.35 Y167.689
G0 X190.049 Y138.301
G0 X190.42 Y138.224
;TYPE:SKIN
G1 F2700 E63.08926
G1 F4200 X190.391 Y138.086 E63.09629
G1 X189.973 Y137.328 E63.13948
G1 X188.262 Y134.257 E63.31487
G1 X185.327 Y129.64 E63.58781
G1 X182.084 Y125.231 E63.86087
G1 X178.551 Y121.051 E64.13392
G1 X174.742 Y117.117 E64.40711
G1 X170.677 Y113.45 E64.68024
G1 X166.378 Y110.066 E64.9532
G1 X161.856 Y106.98 E65.22633
G1 X157.137 Y104.204 E65.49948
G1 X152.241 Y101.753 E65.77264
G1 X147.193 Y99.639 E66.04567
G1 X142.011 Y97.872 E66.31882
G1 X136.726 Y96.456 E66.59179
G1 X131.353 Y95.401 E66.86497
G1 X125.925 Y94.709 E67.13797
G1 X120.977 Y94.402 E67.3853
G1 X119.706 Y94.401 E67.44871
G1 X114.024 Y94.402 E67.73218
G1 X109.076 Y94.71 E67.97952
G1 X103.647 Y95.401 E68.25256
G1 X98.274 Y96.456 E68.52574
G1 X92.989 Y97.872 E68.79871
G1 X87.807 Y99.639 E69.07185
G1 X82.759 Y101.753 E69.34489
G1 X77.863 Y104.204 E69.61805
G1 X73.144 Y106.98 E69.8912
G1 X68.622 Y110.066 E70.16433
G1 X64.323 Y113.45 E70.43728
G1 X60.258 Y117.117 E70.71041
G1 X56.449 Y121.051 E70.9836
G1 X52.916 Y125.231 E71.25666
G1 X49.673 Y129.64 E71.52972
G1 X46.737 Y134.257 E71.80269
G1 X44.61 Y138.08 E72.02095
G1 X44.577 Y138.234 E72.02881
G1 X44.631 Y137.242 E72.07837
G1 X44.743 Y135.281 E72.17637
G1 X45.257 Y126.907 E72.59493
G1 X45.66 Y120.499 E72.91526
G1 X45.665 Y120.498 E72.91552
G1 X47.152 Y96.941 E74.09312
G1 X47.62 Y90.988 E74.39103
G1 X48.087 Y87.653 E74.55904
G1 X48.593 Y85.793 E74.65521
G1 X49.277 Y84.259 E74.739
G1 X50.272 Y82.726 E74.83018
G1 X51.594 Y81.226 E74.92993
G1 X53.371 Y79.725 E75.04598
G1 X55.586 Y78.348 E75.1761
G1 X58.431 Y77.048 E75.33216
G1 X61.118 Y76.066 E75.47488
G1 X62.162 Y75.718 E75.52979
G1 X63.208 Y75.383 E75.58458
G1 X70.383 Y73.381 E75.95622
G1 X76.904 Y71.862 E76.29026
G1 X86.572 Y69.94 E76.78204
G1 X87.885 Y69.718 E76.84848
G1 X97.257 Y68.419 E77.32052
G1 X106.911 Y67.578 E77.80398
G1 X112.069 Y67.31 E78.06166
G1 X122.931 Y67.31 E78.60357
G1 X128.089 Y67.578 E78.86125
G1 X137.743 Y68.419 E79.34471
G1 X147.251 Y69.736 E79.8236
G1 X148.596 Y69.971 E79.89172
G1 X158.104 Y71.863 E80.37537
G1 X164.617 Y73.381 E80.70902
