;FLAVOR:Marlin
;TIME:1935
;Filament used: 4.58274m
;Layer height: 0.3
;MINX:30.938
;MINY:63.269
;MINZ:0.2
;MAXX:204.063
;MAXY:171.931
;MAXZ:11.9
;Generated with Cura_SteamEngine 4.5.0
M140 S50
M105
M190 S50
M104 S230
M105
M109 S230
M82 ;absolute extrusion mode
; Ender 3 Custom Start G-code
G92 E0 ; Reset Extruder
G28 ; Home all axes
G1 Z2.0 F3000 ; Move Z Axis up little to prevent scratching of Heat Bed
G1 X0.1 Y20 Z0.3 F5000.0 ; Move to start position
G1 X0.1 Y200.0 Z0.3 F1500.0 E15 ; Draw the first line
G1 X0.4 Y200.0 Z0.3 F5000.0 ; Move to side a little
G1 X0.4 Y20 Z0.3 F1500.0 E30 ; Draw the second line
G92 E0 ; Reset Extruder
G1 Z2.0 F3000 ; Move Z Axis up little to prevent scratching of Heat Bed
G1 X5 Y20 Z0.3 F5000.0 ; Move over to prevent blob squish
G92 E0
G92 E0
G1 F2700 E-5
;LAYER_COUNT:40
;LAYER:0
M107
;MESH:FastShield V4.5.3.STL
G0 F9000 X38.168 Y169.116 Z0.2
;TYPE:WALL-INNER
G1 F2700 E0
G1 F4200 X37.737 Y169.539 E0.03013
G1 X37.236 Y169.884 E0.06048
G1 X36.684 Y170.14 E0.09083
G1 X36.1 Y170.299 E0.12103
G1 X35.491 Y170.358 E0.15156
G1 X34.882 Y170.315 E0.18201
G1 X34.298 Y170.172 E0.21201
G1 X33.739 Y169.928 E0.24244
G1 X33.231 Y169.595 E0.27274
G1 X32.785 Y169.179 E0.30317
G1 X32.618 Y168.961 E0.31687
G1 X32.744 Y168.327 E0.34912
G1 X32.749 Y168.302 E0.35039
G1 X32.789 Y168.1 E0.36067
G1 X32.83 Y167.899 E0.3709
G1 X32.865 Y167.727 E0.37966
G1 X33.685 Y163.638 E0.58772
G1 X33.827 Y163.553 E0.59598
G1 X34.179 Y163.408 E0.61497
G1 X34.138 Y163.614 E0.61579
G1 X34.116 Y163.724
G1 X33.296 Y167.813 E0.76827
G1 X33.277 Y167.988 E0.77483
G1 X33.282 Y168.198 E0.78325
G1 X33.322 Y168.415 E0.79327
G1 X33.33 Y168.439 E0.79452
G1 X33.395 Y168.616 E0.80393
G1 X33.494 Y168.806 E0.81462
G1 X33.624 Y168.977 E0.82533
G1 X33.78 Y169.131 E0.83627
G1 X33.962 Y169.258 E0.84734
G1 X34.408 Y169.475 E0.87209
G1 X34.894 Y169.614 E0.89731
G1 X35.394 Y169.667 E0.92239
G1 X35.897 Y169.632 E0.94755
G1 X36.385 Y169.512 E0.97262
G1 X36.846 Y169.309 E0.99775
G1 X37.264 Y169.03 E1.02282
G1 X37.628 Y168.682 E1.04795
G1 X37.927 Y168.275 E1.07314
G1 X38.151 Y167.823 E1.09831
G1 X38.282 Y167.379 E1.1214
G1 X43.906 Y139.635 E2.53371
G1 X44.041 Y137.104 E2.66016
G1 X44.136 Y135.45 E2.74282
G1 X44.669 Y126.767 E3.17683
G1 X45.06 Y120.557 E3.48726
G1 X45.082 Y120.202 E3.505
G1 X44.729 Y120.241 E3.51595
G1 X40.507 Y120.715 E3.72791
G1 X40.472 Y120.403 E3.74357
G1 X45.046 Y119.89 E3.9732
G1 X45.106 Y119.883 E3.97621
G1 X46.564 Y96.79 E5.13062
G1 X47.033 Y90.828 E5.42899
G1 X47.513 Y87.407 E5.60133
G1 X48.042 Y85.474 E5.70132
G1 X48.765 Y83.855 E5.78978
G1 X49.81 Y82.252 E5.88524
G1 X51.199 Y80.682 E5.98983
G1 X53.022 Y79.143 E6.10885
G1 X55.312 Y77.721 E6.24333
G1 X58.222 Y76.391 E6.40296
G1 X60.931 Y75.402 E6.54684
G1 X61.97 Y75.056 E6.60147
G1 X63.158 Y74.677 E6.66368
G1 X70.341 Y72.679 E7.03565
G1 X76.49 Y71.247 E7.35064
G1 X86.139 Y69.314 E7.84159
G1 X87.624 Y69.058 E7.91677
G1 X87.621 Y69.035 E7.91793
G1 X87.175 Y66.308 E8.05579
G1 X87.005 Y65.326 E8.10551
G1 X86.968 Y65.114 E8.11624
G1 X87.263 Y65.063 E8.12481
G1 X87.299 Y65.274 E8.12912
G1 X87.471 Y66.256 E8.15394
G1 X87.949 Y68.981 E8.22679
G1 X97.56 Y67.687 E8.71061
G1 X107.305 Y66.857 E9.19855
G1 X112.035 Y66.617 E9.43483
G1 X122.965 Y66.617 E9.98013
G1 X127.685 Y66.856 E10.21592
G1 X137.443 Y67.688 E10.70451
G1 X140.346 Y68.074 E10.85062
G1 X147.053 Y68.979 E11.18826
G1 X147.335 Y67.339 E11.27128
G1 X147.523 Y66.263 E11.32578
G1 X147.733 Y65.062 E11.38661
G1 X148.037 Y65.115 E11.402
G1 X147.836 Y66.317 E11.43371
G1 X147.65 Y67.393 E11.46262
G1 X147.365 Y69.033 E11.50664
G1 X147.361 Y69.052 E11.50761
G1 X148.941 Y69.328 E11.58763
G1 X158.648 Y71.276 E12.08157
G1 X164.658 Y72.679 E12.38947
G1 X171.962 Y74.713 E12.76773
G1 X173.022 Y75.053 E12.82327
G1 X174.069 Y75.402 E12.87833
G1 X176.778 Y76.391 E13.02221
G1 X179.688 Y77.721 E13.18183
G1 X181.978 Y79.143 E13.31632
G1 X183.776 Y80.653 E13.43346
G1 X185.134 Y82.179 E13.53537
G1 X186.194 Y83.785 E13.63137
G1 X186.928 Y85.395 E13.71965
G1 X187.475 Y87.361 E13.82146
G1 X187.968 Y90.831 E13.99632
G1 X188.435 Y96.776 E14.29383
G1 X189.894 Y119.883 E15.44894
G1 X189.951 Y119.889 E15.45179
G1 X194.529 Y120.402 E15.68162
G1 X194.494 Y120.714 E15.69729
G1 X190.269 Y120.241 E15.90939
G1 X189.916 Y120.202 E15.92644
G1 X189.938 Y120.557 E15.93739
G1 X190.629 Y131.538 E16.48632
G1 X190.862 Y135.409 E16.6798
G1 X191.093 Y139.625 E16.89045
G1 X196.718 Y167.379 E18.30325
G1 X196.849 Y167.823 E18.32635
G1 X197.073 Y168.275 E18.35152
G1 X197.372 Y168.682 E18.37671
G1 X197.736 Y169.03 E18.40184
G1 X198.154 Y169.309 E18.42691
G1 X198.615 Y169.512 E18.45204
G1 X199.103 Y169.632 E18.47711
G1 X199.606 Y169.667 E18.50227
G1 X200.106 Y169.614 E18.52735
G1 X200.592 Y169.475 E18.55257
G1 X201.038 Y169.258 E18.57732
G1 X201.22 Y169.131 E18.58839
G1 X201.376 Y168.977 E18.59933
G1 X201.506 Y168.806 E18.61004
G1 X201.605 Y168.616 E18.62073
G1 X201.674 Y168.426 E18.63082
G1 X201.678 Y168.415 E18.6314
G1 X201.718 Y168.198 E18.64241
G1 X201.723 Y167.986 E18.65299
G1 X201.702 Y167.809 E18.66188
G1 X200.874 Y163.721 E18.86997
G1 X200.849 Y163.598 E18.87623
G1 X200.809 Y163.404 E18.88612
G1 X201.142 Y163.538 E18.89472
G1 X201.304 Y163.633 E18.90132
G1 X202.139 Y167.719 E19.05485
G1 X202.175 Y167.893 E19.06156
G1 X202.217 Y168.095 E19.06988
G1 X202.258 Y168.296 E19.07927
G1 X202.26 Y168.307 E19.07983
G1 X202.392 Y168.95 E19.11258
G1 X202.232 Y169.161 E19.12579
G1 X201.79 Y169.579 E19.15614
G1 X201.288 Y169.913 E19.18622
G1 X200.734 Y170.159 E19.21646
G1 X200.137 Y170.31 E19.24718
G1 X199.537 Y170.359 E19.27722
G1 X198.927 Y170.305 E19.30777
G1 X198.342 Y170.15 E19.33796
G1 X197.789 Y169.898 E19.36828
G1 X197.284 Y169.555 E19.39874
G1 X196.853 Y169.139 E19.42862
G1 X196.485 Y168.64 E19.45956
G1 X196.217 Y168.105 E19.48941
G1 X196.028 Y167.488 E19.5216
G1 X189.831 Y138.186 E21.01582
G1 X187.755 Y134.454 E21.22888
G1 X184.84 Y129.87 E21.4999
G1 X181.62 Y125.493 E21.77099
G1 X178.113 Y121.343 E22.04207
G1 X174.332 Y117.438 E22.31325
G1 X170.297 Y113.798 E22.58436
G1 X166.028 Y110.439 E22.85537
G1 X161.54 Y107.375 E23.12648
G1 X156.855 Y104.62 E23.39763
G1 X151.995 Y102.186 E23.66881
G1 X146.984 Y100.088 E23.93983
G1 X141.84 Y98.333 E24.21099
G1 X136.592 Y96.928 E24.48204
G1 X131.259 Y95.879 E24.7532
G1 X125.87 Y95.193 E25.02423
G1 X120.959 Y94.888 E25.26971
G1 X119.706 Y94.887 E25.33223
G1 X114.042 Y94.888 E25.6148
G1 X109.13 Y95.193 E25.86034
G1 X103.741 Y95.879 E26.13136
G1 X98.408 Y96.928 E26.40253
G1 X93.16 Y98.333 E26.67357
G1 X88.016 Y100.088 E26.94473
G1 X83.005 Y102.186 E27.21576
G1 X78.145 Y104.62 E27.48693
G1 X73.46 Y107.375 E27.75809
G1 X68.972 Y110.439 E28.0292
G1 X64.703 Y113.798 E28.30021
G1 X60.668 Y117.438 E28.57132
G1 X56.887 Y121.343 E28.8425
G1 X53.38 Y125.493 E29.11357
G1 X50.16 Y129.87 E29.38467
G1 X47.244 Y134.454 E29.65571
G1 X47.01 Y134.877 E29.67983
G1 X45.169 Y138.185 E29.8687
G1 X44.926 Y139.332 E29.9272
G1 X38.98 Y167.464 E31.36172
G1 X38.797 Y168.075 E31.39354
G1 X38.526 Y168.624 E31.42408
G1 X38.168 Y169.116 E31.45444
G0 F9000 X38.625 Y169.508
;TYPE:WALL-OUTER
G1 F4200 X38.119 Y170.004 E31.48979
G1 X37.533 Y170.407 E31.52527
G1 X36.89 Y170.706 E31.56065
G1 X36.211 Y170.891 E31.59576
G1 X35.495 Y170.96 E31.63165
G1 X34.79 Y170.911 E31.6669
G1 X34.106 Y170.743 E31.70204
G1 X33.452 Y170.458 E31.73763
G1 X32.86 Y170.07 E31.77295
G1 X32.338 Y169.583 E31.80856
G1 X31.977 Y169.109 E31.83829
G1 X33.149 Y163.258 E32.136
G1 X33.565 Y163.012 E32.16011
G1 X34.129 Y162.779 E32.19055
G1 X34.722 Y162.63 E32.22106
G1 X34.951 Y162.607 E32.23254
G1 X33.89 Y167.905 E32.50211
G1 X33.878 Y168.014 E32.50758
G1 X33.881 Y168.137 E32.51371
G1 X33.903 Y168.258 E32.51985
G1 X33.945 Y168.374 E32.52601
G1 X34.002 Y168.483 E32.53214
G1 X34.076 Y168.58 E32.53823
G1 X34.165 Y168.668 E32.54447
G1 X34.267 Y168.739 E32.55067
G1 X34.624 Y168.913 E32.57049
G1 X35.009 Y169.023 E32.59046
G1 X35.405 Y169.065 E32.61033
G1 X35.804 Y169.037 E32.63029
G1 X36.191 Y168.942 E32.65017
G1 X36.556 Y168.781 E32.67007
G1 X36.887 Y168.56 E32.68993
G1 X37.176 Y168.284 E32.70986
G1 X37.413 Y167.962 E32.72981
G1 X37.59 Y167.604 E32.74973
G1 X37.699 Y167.234 E32.76898
G1 X43.309 Y139.559 E34.17777
G1 X43.442 Y137.07 E34.30213
G1 X43.537 Y135.413 E34.38493
G1 X44.07 Y126.73 E34.81894
G1 X44.439 Y120.878 E35.11148
G1 X39.978 Y121.378 E35.33543
G1 X39.809 Y119.874 E35.41094
G1 X44.539 Y119.343 E35.6484
G1 X45.966 Y96.743 E36.77817
G1 X46.436 Y90.764 E37.07738
G1 X46.925 Y87.28 E37.2529
G1 X47.475 Y85.272 E37.35677
G1 X48.237 Y83.566 E37.44999
G1 X49.329 Y81.89 E37.54979
G1 X50.777 Y80.254 E37.65878
G1 X52.67 Y78.655 E37.78241
G1 X55.029 Y77.191 E37.92092
G1 X57.998 Y75.834 E38.08379
G1 X60.725 Y74.838 E38.22863
G1 X61.788 Y74.484 E38.28452
G1 X62.98 Y74.104 E38.34694
G1 X70.184 Y72.1 E38.72
G1 X76.366 Y70.66 E39.03668
G1 X86.03 Y68.724 E39.52839
G1 X86.936 Y68.568 E39.57426
G1 X86.583 Y66.408 E39.68345
G1 X86.274 Y64.625 E39.77373
G1 X87.754 Y64.37 E39.84866
G1 X87.89 Y65.172 E39.88924
G1 X88.44 Y68.309 E40.04813
G1 X97.491 Y67.091 E40.50376
G1 X107.254 Y66.259 E40.9926
G1 X112.025 Y66.017 E41.23094
G1 X122.975 Y66.017 E41.77723
G1 X127.736 Y66.258 E42.01506
G1 X137.509 Y67.091 E42.50441
G1 X140.426 Y67.479 E42.65122
G1 X146.56 Y68.307 E42.96002
G1 X146.744 Y67.236 E43.01424
G1 X147.245 Y64.37 E43.15939
G1 X148.728 Y64.625 E43.23446
G1 X148.427 Y66.42 E43.32527
G1 X148.055 Y68.564 E43.43383
G1 X149.044 Y68.737 E43.48392
G1 X158.772 Y70.689 E43.97893
G1 X164.815 Y72.1 E44.28852
G1 X172.123 Y74.135 E44.66699
G1 X173.212 Y74.484 E44.72404
G1 X174.275 Y74.838 E44.77994
G1 X177.002 Y75.834 E44.92478
G1 X179.971 Y77.191 E45.08764
G1 X182.33 Y78.655 E45.22616
G1 X184.196 Y80.223 E45.34776
G1 X185.613 Y81.815 E45.45409
G1 X186.72 Y83.491 E45.5543
G1 X187.493 Y85.188 E45.64733
G1 X188.063 Y87.237 E45.75344
G1 X188.564 Y90.764 E45.93117
G1 X189.034 Y96.738 E46.23013
G1 X190.461 Y119.343 E47.36014
G1 X195.192 Y119.873 E47.59765
G1 X195.023 Y121.377 E47.67316
G1 X190.56 Y120.878 E47.8972
G1 X191.228 Y131.502 E48.42828
G1 X191.461 Y135.376 E48.62191
G1 X191.69 Y139.549 E48.83041
G1 X197.301 Y167.234 E50.23971
G1 X197.41 Y167.604 E50.25895
G1 X197.587 Y167.962 E50.27887
G1 X197.824 Y168.284 E50.29882
G1 X198.113 Y168.56 E50.31876
G1 X198.444 Y168.781 E50.33861
G1 X198.809 Y168.942 E50.35852
G1 X199.196 Y169.037 E50.3784
G1 X199.595 Y169.065 E50.39835
G1 X199.991 Y169.023 E50.41822
G1 X200.376 Y168.913 E50.4382
G1 X200.733 Y168.739 E50.45801
G1 X200.835 Y168.668 E50.46421
G1 X200.924 Y168.58 E50.47045
G1 X200.998 Y168.483 E50.47654
G1 X201.055 Y168.374 E50.48268
G1 X201.097 Y168.258 E50.48883
G1 X201.119 Y168.137 E50.49497
G1 X201.122 Y168.014 E50.50111
G1 X201.109 Y167.904 E50.50663
G1 X200.035 Y162.604 E50.77643
G1 X200.253 Y162.625 E50.78735
G1 X200.837 Y162.768 E50.81735
G1 X201.407 Y162.998 E50.84801
G1 X201.839 Y163.252 E50.87302
G1 X203.034 Y169.096 E51.17061
G1 X202.683 Y169.56 E51.19963
G1 X202.167 Y170.048 E51.23507
G1 X201.575 Y170.442 E51.27054
G1 X200.929 Y170.729 E51.30581
G1 X200.238 Y170.904 E51.34137
G1 X199.533 Y170.961 E51.37666
G1 X198.824 Y170.899 E51.41217
G1 X198.139 Y170.717 E51.44753
G1 X197.496 Y170.424 E51.48278
G1 X196.904 Y170.022 E51.51848
G1 X196.399 Y169.534 E51.55352
G1 X195.973 Y168.956 E51.58934
G1 X195.657 Y168.327 E51.62446
G1 X195.447 Y167.639 E51.66035
G1 X189.263 Y138.398 E53.15145
G1 X188.897 Y137.738 E53.18911
G1 X187.239 Y134.761 E53.35911
G1 X184.345 Y130.209 E53.62822
G1 X181.149 Y125.865 E53.89728
G1 X177.668 Y121.746 E54.16633
G1 X173.915 Y117.87 E54.4355
G1 X169.91 Y114.257 E54.7046
G1 X165.673 Y110.923 E54.97358
G1 X161.218 Y107.882 E55.24269
G1 X156.568 Y105.147 E55.51183
G1 X151.745 Y102.732 E55.78093
G1 X146.771 Y100.649 E56.04997
G1 X141.665 Y98.907 E56.31912
G1 X136.456 Y97.513 E56.58815
G1 X131.163 Y96.472 E56.85727
G1 X125.813 Y95.791 E57.12634
G1 X120.94 Y95.488 E57.36992
G1 X119.706 Y95.487 E57.43149
G1 X114.06 Y95.488 E57.71317
G1 X109.187 Y95.791 E57.95675
G1 X103.837 Y96.472 E58.22582
G1 X98.544 Y97.513 E58.49495
G1 X93.335 Y98.907 E58.76397
G1 X88.229 Y100.649 E59.03313
G1 X83.255 Y102.732 E59.30216
G1 X78.432 Y105.147 E59.57126
G1 X73.782 Y107.882 E59.8404
G1 X69.327 Y110.923 E60.10951
G1 X65.09 Y114.257 E60.37849
G1 X61.085 Y117.87 E60.64759
G1 X57.332 Y121.746 E60.91676
G1 X53.851 Y125.865 E61.18581
G1 X50.655 Y130.209 E61.45487
G1 X47.76 Y134.76 E61.72397
G1 X47.534 Y135.169 E61.74728
G1 X45.737 Y138.398 E61.93164
G1 X45.513 Y139.456 E61.9856
G1 X39.561 Y167.619 E63.42169
G1 X39.358 Y168.294 E63.45686
G1 X39.042 Y168.934 E63.49247
G1 X38.625 Y169.508 E63.52786
G0 F9000 X38.126 Y169.077
G1 F2700 E58.52786
G0 F9000 X36.591 Y169.885
G0 X36.055 Y170.031
G0 X35.483 Y170.086
G0 X34.925 Y170.047
G0 X34.385 Y169.914
G0 X33.868 Y169.689
G0 X33.4 Y169.382
G0 X32.912 Y168.893
G0 X33.022 Y168.467
G0 X35.939 Y169.9
G0 X37.847 Y168.526
G0 X44.199 Y138.11
G0 X44.577 Y138.13
;TYPE:SKIN
G1 F2700 E63.52786
G1 F4200 X44.631 Y137.138 E63.57743
G1 X44.743 Y135.177 E63.67542
G1 X45.257 Y126.803 E64.09399
G1 X45.66 Y120.395 E64.41432
G1 X45.665 Y120.394 E64.41457
G1 X47.152 Y96.837 E65.59217
G1 X47.621 Y90.877 E65.89044
G1 X48.092 Y87.526 E66.05926
G1 X48.598 Y85.675 E66.155
G1 X49.285 Y84.136 E66.23908
G1 X50.279 Y82.613 E66.32982
G1 X51.612 Y81.106 E66.43019
G1 X53.374 Y79.619 E66.54522
G1 X55.584 Y78.246 E66.67502
G1 X58.457 Y76.933 E66.83262
G1 X61.118 Y75.962 E66.97394
G1 X62.157 Y75.616 E67.02857
G1 X63.332 Y75.241 E67.0901
G1 X70.489 Y73.249 E67.46074
G1 X76.606 Y71.825 E67.77408
G1 X86.239 Y69.896 E68.26421
G1 X88.295 Y69.541 E68.36831
G1 X88.293 Y69.53 E68.36886
G1 X97.61 Y68.275 E68.83789
G1 X107.335 Y67.447 E69.32483
G1 X112.065 Y67.207 E69.56111
G1 X122.935 Y67.207 E70.10342
G1 X127.655 Y67.446 E70.3392
G1 X137.393 Y68.276 E70.82679
G1 X140.268 Y68.658 E70.97149
G1 X146.686 Y69.524 E71.29458
G1 X146.685 Y69.533 E71.29504
G1 X148.884 Y69.917 E71.4064
G1 X158.532 Y71.854 E71.89735
G1 X164.508 Y73.249 E72.20351
G1 X171.781 Y75.275 E72.58018
G1 X172.835 Y75.613 E72.6354
G1 X173.882 Y75.962 E72.69046
G1 X176.543 Y76.933 E72.83178
G1 X179.416 Y78.246 E72.98937
G1 X181.626 Y79.619 E73.11918
G1 X183.365 Y81.08 E73.23249
G1 X184.667 Y82.542 E73.33016
G1 X185.676 Y84.071 E73.42156
G1 X186.373 Y85.599 E73.50534
G1 X186.896 Y87.48 E73.60275
G1 X187.381 Y90.894 E73.77478
G1 X187.847 Y96.813 E74.071
G1 X190.041 Y131.575 E75.80873
G1 X190.258 Y135.177 E75.98876
G1 X190.42 Y138.119 E76.13576
G1 X190.39 Y137.977 E76.143
G1 X188.262 Y134.152 E76.36138
G1 X185.327 Y129.536 E76.63428
G1 X182.084 Y125.127 E76.90734
G1 X178.551 Y120.947 E77.18039
G1 X174.742 Y117.013 E77.45358
G1 X170.677 Y113.346 E77.72671
G1 X166.378 Y109.963 E77.99963
G1 X161.856 Y106.877 E78.27277
G1 X157.137 Y104.101 E78.54591
G1 X152.241 Y101.649 E78.8191
G1 X147.193 Y99.536 E79.09211
G1 X142.011 Y97.768 E79.36528
G1 X136.726 Y96.353 E79.63824
G1 X131.353 Y95.297 E79.91142
G1 X125.925 Y94.605 E80.18442
G1 X120.977 Y94.298 E80.43175
G1 X119.706 Y94.297 E80.49516
G1 X114.024 Y94.298 E80.77864
G1 X109.075 Y94.605 E81.02602
G1 X103.647 Y95.297 E81.29901
G1 X98.274 Y96.353 E81.5722
G1 X92.989 Y97.768 E81.84516
G1 X87.807 Y99.536 E82.11832
G1 X82.759 Y101.649 E82.39134
G1 X77.863 Y104.101 E82.66452
G1 X73.144 Y106.877 E82.93767
G1 X68.622 Y109.963 E83.2108
G1 X64.323 Y113.346 E83.48373
G1 X60.258 Y117.013 E83.75685
G1 X56.449 Y120.947 E84.03005
G1 X52.916 Y125.127 E84.3031
G1 X49.673 Y129.536 E84.57616
G1 X46.737 Y134.153 E84.84913
G1 X44.61 Y137.976 E85.06739
G1 X44.577 Y138.13 E85.07525
G1 F2700 E80.07525
G0 F9000 X44.199 Y138.11
G0 X37.832 Y168.861
G0 X34.311 Y169.729
G0 X33.022 Y168.467
G0 X32.912 Y168.893
G0 X33.4 Y169.382
G0 X33.868 Y169.689
G0 X34.385 Y169.914
G0 X34.925 Y170.047
G0 X35.483 Y170.086
G0 X36.055 Y170.031
G0 X36.591 Y169.885
G0 X37.1 Y169.649
G0 X37.565 Y169.329
G0 X37.961 Y168.94
G0 X38.294 Y168.482
G0 X38.544 Y167.976
G0 X38.719 Y167.392
G0 X45.065 Y137.786
G0 X50.374 Y130.017
G0 X53.584 Y125.655
G0 X57.08 Y121.519
G0 X60.85 Y117.626
G0 X64.872 Y113.997
G0 X69.126 Y110.649
