;FLAVOR:Marlin
;TIME:9271
;Filament used: 24.1914m
;Layer height: 0.3
;MINX:0.077
;MINY:9.758
;MINZ:0.3
;MAXX:233.941
;MAXY:224.855
;MAXZ:12
;Generated with Cura_SteamEngine 4.5.0
M140 S50
M105
M190 S50
M104 S240
M105
M109 S240
M82 ;absolute extrusion mode
; Ender 3 Custom Start G-code
G92 E0 ; Reset Extruder
G28 ; Home all axes
G1 Z2.0 F3000 ; Move Z Axis up little to prevent scratching of Heat Bed
G1 X0.1 Y20 Z0.3 F5000.0 ; Move to start position
G1 X0.1 Y200.0 Z0.3 F1500.0 E15 ; Draw the first line
G1 X0.4 Y200.0 Z0.3 F5000.0 ; Move to side a little
G1 X0.4 Y20 Z0.3 F1500.0 E30 ; Draw the second line
G92 E0 ; Reset Extruder
G1 Z2.0 F3000 ; Move Z Axis up little to prevent scratching of Heat Bed
G1 X5 Y20 Z0.3 F5000.0 ; Move over to prevent blob squish
G92 E0
G92 E0
G1 F2700 E-5
;LAYER_COUNT:40
;LAYER:0
M107
;MESH:Object 1
G0 F9000 X167.471 Y116.669 Z0.3
;TYPE:WALL-INNER
G1 F2700 E0
G1 F2100 X166.921 Y116.419 E0.06782
G1 X166.414 Y116.077 E0.13647
G1 X165.972 Y115.651 E0.20538
G1 X165.617 Y115.172 E0.2723
G1 X165.34 Y114.623 E0.34133
G1 X165.153 Y114.015 E0.41274
G1 X159.007 Y84.932 E3.74949
G1 X156.829 Y80.998 E4.25425
G1 X153.915 Y76.419 E4.86352
G1 X150.697 Y72.044 E5.47317
G1 X147.192 Y67.897 E6.08268
G1 X143.415 Y63.995 E6.69228
G1 X139.383 Y60.358 E7.30181
G1 X135.116 Y57.001 E7.91126
G1 X130.631 Y53.939 E8.52085
G1 X125.949 Y51.186 E9.13055
G1 X121.094 Y48.755 E9.74004
G1 X116.086 Y46.658 E10.34949
G1 X110.946 Y44.903 E10.95918
G1 X105.701 Y43.499 E11.56868
G1 X100.372 Y42.451 E12.17833
G1 X94.986 Y41.765 E12.78781
G1 X94.495 Y41.736 E12.84302
G1 X90.08 Y41.462 E13.33957
G1 X83.163 Y41.461 E14.11602
G1 X78.257 Y41.765 E14.66779
G1 X72.873 Y42.451 E15.27705
G1 X67.544 Y43.499 E15.8867
G1 X62.299 Y44.903 E16.4962
G1 X57.159 Y46.658 E17.10588
G1 X52.151 Y48.755 E17.71534
G1 X47.295 Y51.186 E18.32493
G1 X42.613 Y53.939 E18.93462
G1 X38.129 Y57.001 E19.54413
G1 X33.861 Y60.358 E20.15367
G1 X29.829 Y63.995 E20.7632
G1 X26.053 Y67.897 E21.37272
G1 X22.547 Y72.044 E21.9823
G1 X19.33 Y76.419 E22.59189
G1 X16.416 Y80.998 E23.20115
G1 X14.237 Y84.933 E23.70607
G1 X14.049 Y85.845 E23.81059
G1 X8.1 Y113.986 E27.03932
G1 X7.92 Y114.588 E27.10985
G1 X7.654 Y115.128 E27.17742
G1 X7.293 Y115.627 E27.24656
G1 X6.862 Y116.05 E27.31435
G1 X6.368 Y116.393 E27.38185
G1 X5.81 Y116.653 E27.45096
G1 X5.225 Y116.814 E27.51907
G1 X4.62 Y116.874 E27.58731
G1 X4.012 Y116.832 E27.65573
G1 X3.422 Y116.688 E27.7239
G1 X2.868 Y116.448 E27.79167
G1 X2.357 Y116.114 E27.8602
G1 X1.914 Y115.704 E27.92796
G1 X1.745 Y115.482 E27.95928
G1 X1.869 Y114.855 E28.03102
G1 X1.876 Y114.819 E28.03514
G1 X1.916 Y114.618 E28.05814
G1 X1.956 Y114.417 E28.08115
G1 X1.991 Y114.245 E28.10085
G1 X2.808 Y110.154 E28.56915
G1 X2.951 Y110.069 E28.58782
G1 X3.296 Y109.927 E28.6297
G1 X3.256 Y110.129 E28.63125
G1 X3.234 Y110.238
G1 X2.418 Y114.329 E28.97093
G1 X2.399 Y114.504 E28.98555
G1 X2.404 Y114.714 E29.00431
G1 X2.444 Y114.931 E29.02666
G1 X2.456 Y114.965 E29.03064
G1 X2.517 Y115.133 E29.0507
G1 X2.618 Y115.325 E29.07506
G1 X2.75 Y115.497 E29.09939
G1 X2.901 Y115.645 E29.12313
G1 X3.081 Y115.773 E29.14792
G1 X3.53 Y115.991 E29.20395
G1 X4.016 Y116.131 E29.26072
G1 X4.518 Y116.183 E29.31738
G1 X5.019 Y116.148 E29.37375
G1 X5.507 Y116.028 E29.43016
G1 X5.967 Y115.825 E29.4866
G1 X6.386 Y115.546 E29.54311
G1 X6.752 Y115.197 E29.59988
G1 X7.05 Y114.79 E29.6565
G1 X7.272 Y114.342 E29.71263
G1 X7.405 Y113.896 E29.76487
G1 X13.028 Y86.15 E32.94276
G1 X13.074 Y85.257 E33.04313
G1 X13.261 Y81.93 E33.41719
G1 X13.879 Y71.909 E34.54421
G1 X14.173 Y67.237 E35.0697
G1 X14.174 Y67.236 E35.06985
G1 X14.195 Y66.882 E35.10966
G1 X13.843 Y66.919 E35.1342
G1 X13.842 Y66.92 E35.13436
G1 X12.495 Y67.069 E35.28648
G1 X9.646 Y67.389 E35.6083
G1 X9.608 Y67.058 E35.6457
G1 X9.575 Y66.761 E35.67925
G1 X9.872 Y66.728 E35.70092
G1 X14.238 Y66.238 E36.19409
G1 X15.686 Y43.306 E38.7734
G1 X16.156 Y37.344 E39.44473
G1 X16.636 Y33.923 E39.83251
G1 X17.179 Y31.943 E40.06298
G1 X17.902 Y30.341 E40.26027
G1 X18.961 Y28.727 E40.47696
G1 X20.347 Y27.169 E40.71104
G1 X22.144 Y25.659 E40.97452
G1 X24.434 Y24.237 E41.27711
G1 X27.344 Y22.907 E41.63627
G1 X30.053 Y21.918 E41.95999
G1 X31.092 Y21.572 E42.08292
G1 X32.275 Y21.194 E42.22233
G1 X39.464 Y19.195 E43.05993
G1 X45.473 Y17.793 E43.75258
G1 X45.681 Y17.75 E43.77642
G1 X55.273 Y15.828 E44.87455
G1 X56.421 Y15.63 E45.00532
G1 X56.446 Y14.73 E45.10639
G1 X55.965 Y11.955 E45.42253
G1 X55.915 Y11.661 E45.45601
G1 X56.209 Y11.61 E45.48951
G1 X56.545 Y11.552 E45.52778
G1 X57.226 Y15.472 E45.9744
G1 X66.682 Y14.203 E47.04538
G1 X76.428 Y13.373 E48.14336
G1 X81.158 Y13.133 E48.675
G1 X92.087 Y13.133 E49.90181
G1 X96.807 Y13.372 E50.43232
G1 X106.566 Y14.204 E51.53177
G1 X110.936 Y14.786 E52.02665
G1 X116.018 Y15.47 E52.60227
G1 X116.699 Y11.552 E53.04867
G1 X117.037 Y11.611 E53.08718
G1 X117.331 Y11.661 E53.12066
G1 X117.281 Y11.955 E53.14231
G1 X116.65 Y15.597 E53.55723
G1 X118.072 Y15.846 E53.71928
G1 X127.771 Y17.792 E54.82972
G1 X133.78 Y19.195 E55.52239
G1 X141.084 Y21.229 E56.37348
G1 X142.144 Y21.569 E56.49844
G1 X143.191 Y21.918 E56.62233
G1 X145.901 Y22.907 E56.94616
G1 X148.811 Y24.237 E57.30531
G1 X151.1 Y25.659 E57.60781
G1 X152.898 Y27.169 E57.87137
G1 X154.287 Y28.729 E58.10584
G1 X155.341 Y30.338 E58.32176
G1 X156.066 Y31.943 E58.51945
G1 X156.609 Y33.923 E58.74992
G1 X157.089 Y37.344 E59.1377
G1 X157.557 Y43.292 E59.80744
G1 X159.006 Y66.238 E62.38833
G1 X163.373 Y66.727 E62.8816
G1 X163.67 Y66.76 E62.91515
G1 X163.637 Y67.057 E62.93682
G1 X163.599 Y67.388 E62.97421
G1 X159.401 Y66.918 E63.4484
G1 X159.048 Y66.879 E63.48826
G1 X159.07 Y67.234 E63.51292
G1 X159.751 Y78.043 E64.72867
G1 X159.985 Y81.925 E65.16523
G1 X160.214 Y86.137 E65.63873
G1 X165.84 Y113.894 E68.8179
G1 X165.971 Y114.34 E68.87008
G1 X166.195 Y114.791 E68.9266
G1 X166.494 Y115.198 E68.98329
G1 X166.858 Y115.546 E69.03982
G1 X167.276 Y115.825 E69.09624
G1 X167.738 Y116.028 E69.15288
G1 X168.226 Y116.148 E69.2093
G1 X168.727 Y116.183 E69.26567
G1 X169.23 Y116.131 E69.32244
G1 X169.715 Y115.991 E69.3791
G1 X170.16 Y115.774 E69.43468
G1 X170.342 Y115.647 E69.45959
G1 X170.498 Y115.493 E69.4842
G1 X170.624 Y115.327 E69.50759
G1 X170.73 Y115.132 E69.5325
G1 X170.796 Y114.943 E69.55498
G1 X170.801 Y114.926 E69.55696
G1 X170.839 Y114.722 E69.58026
G1 X170.848 Y114.502 E69.60497
G1 X170.823 Y114.319 E69.62571
G1 X169.995 Y110.233 E70.0937
G1 X169.97 Y110.113 E70.10746
G1 X169.931 Y109.92 E70.12956
G1 X170.261 Y110.053 E70.14868
G1 X170.421 Y110.146 E70.16308
G1 X171.258 Y114.229 E70.50594
G1 X171.296 Y114.41 E70.52154
G1 X171.339 Y114.619 E70.54083
G1 X171.378 Y114.807 E70.55953
G1 X171.381 Y114.824 E70.56145
G1 X171.514 Y115.468 E70.63526
G1 X171.365 Y115.666 E70.66308
G1 X170.921 Y116.086 E70.73169
G1 X170.413 Y116.426 E70.80031
G1 X169.856 Y116.675 E70.86879
G1 X169.271 Y116.824 E70.93656
G1 X168.664 Y116.874 E71.00493
G1 X168.053 Y116.822 E71.07376
G1 X167.471 Y116.669 E71.14131
G0 F9000 X167.269 Y117.236
;TYPE:WALL-OUTER
G1 F2100 X166.626 Y116.944 E71.22058
G1 X166.033 Y116.543 E71.30094
G1 X165.522 Y116.052 E71.38049
G1 X165.103 Y115.486 E71.45954
G1 X164.783 Y114.85 E71.53946
G1 X164.571 Y114.163 E71.62017
G1 X158.439 Y85.144 E74.94957
G1 X156.313 Y81.305 E75.44218
G1 X153.42 Y76.758 E76.04714
G1 X150.226 Y72.416 E76.65221
G1 X146.747 Y68.3 E77.25718
G1 X142.998 Y64.427 E77.86225
G1 X138.996 Y60.817 E78.46726
G1 X134.761 Y57.485 E79.07215
G1 X130.309 Y54.446 E79.67723
G1 X125.662 Y51.713 E80.2824
G1 X120.844 Y49.301 E80.88722
G1 X115.873 Y47.219 E81.49219
G1 X110.771 Y45.477 E82.09737
G1 X105.565 Y44.084 E82.70232
G1 X100.276 Y43.044 E83.30739
G1 X94.93 Y42.363 E83.91235
G1 X94.458 Y42.335 E83.96542
G1 X90.061 Y42.062 E84.45995
G1 X83.182 Y42.061 E85.23214
G1 X78.314 Y42.363 E85.77964
G1 X72.969 Y43.044 E86.38448
G1 X67.68 Y44.084 E86.98955
G1 X62.474 Y45.477 E87.5945
G1 X57.372 Y47.219 E88.19968
G1 X52.401 Y49.301 E88.80465
G1 X47.582 Y51.713 E89.40958
G1 X42.935 Y54.446 E90.01474
G1 X38.484 Y57.485 E90.61973
G1 X34.248 Y60.817 E91.22471
G1 X30.246 Y64.427 E91.82971
G1 X26.498 Y68.3 E92.43471
G1 X23.018 Y72.416 E93.03975
G1 X19.825 Y76.758 E93.64475
G1 X16.932 Y81.305 E94.24972
G1 X14.806 Y85.144 E94.74233
G1 X14.636 Y85.969 E94.83688
G1 X8.68 Y114.143 E98.06939
G1 X8.481 Y114.806 E98.1471
G1 X8.169 Y115.44 E98.22642
G1 X7.751 Y116.018 E98.30649
G1 X7.244 Y116.515 E98.38618
G1 X6.666 Y116.916 E98.46515
G1 X6.018 Y117.219 E98.54545
G1 X5.338 Y117.406 E98.62462
G1 X4.626 Y117.476 E98.70492
G1 X3.92 Y117.428 E98.78436
G1 X3.233 Y117.26 E98.86375
G1 X2.583 Y116.978 E98.94328
G1 X1.988 Y116.589 E99.02308
G1 X1.466 Y116.106 E99.10291
G1 X1.104 Y115.631 E99.16995
G1 X2.272 Y109.774 E99.84036
G1 X2.679 Y109.533 E99.89346
G1 X3.247 Y109.298 E99.96246
G1 X3.846 Y109.146 E100.03183
G1 X4.067 Y109.124 E100.05676
G1 X3.012 Y114.421 E100.66304
G1 X3 Y114.53 E100.67535
G1 X3.003 Y114.653 E100.68917
G1 X3.025 Y114.774 E100.70297
G1 X3.067 Y114.89 E100.71682
G1 X3.125 Y115 E100.73078
G1 X3.2 Y115.098 E100.74463
G1 X3.287 Y115.183 E100.75828
G1 X3.388 Y115.255 E100.77221
G1 X3.746 Y115.429 E100.81689
G1 X4.131 Y115.54 E100.86187
G1 X4.528 Y115.581 E100.90667
G1 X4.926 Y115.553 E100.95146
G1 X5.313 Y115.458 E100.99619
G1 X5.678 Y115.297 E101.04097
G1 X6.01 Y115.076 E101.08574
G1 X6.299 Y114.8 E101.1306
G1 X6.535 Y114.477 E101.1755
G1 X6.712 Y114.121 E101.22013
G1 X6.822 Y113.751 E101.26346
G1 X12.431 Y86.075 E104.43333
G1 X12.475 Y85.223 E104.5291
G1 X12.662 Y81.893 E104.90349
G1 X13.28 Y71.872 E106.03052
G1 X13.552 Y67.556 E106.51596
G1 X12.561 Y67.665 E106.62787
G1 X9.117 Y68.052 E107.01691
G1 X8.912 Y66.232 E107.2225
G1 X13.671 Y65.698 E107.76006
G1 X15.088 Y43.259 E110.28393
G1 X15.559 Y37.28 E110.95716
G1 X16.048 Y33.796 E111.35209
G1 X16.612 Y31.74 E111.59141
G1 X17.374 Y30.051 E111.7994
G1 X18.482 Y28.362 E112.02615
G1 X19.927 Y26.739 E112.27009
G1 X21.792 Y25.171 E112.5436
G1 X24.151 Y23.707 E112.85525
G1 X27.12 Y22.35 E113.22169
G1 X29.847 Y21.354 E113.54758
G1 X30.91 Y21 E113.67335
G1 X32.097 Y20.621 E113.81322
G1 X39.307 Y18.616 E114.65328
G1 X45.352 Y17.205 E115.35009
G1 X45.56 Y17.162 E115.37393
G1 X55.164 Y15.238 E116.47343
G1 X55.835 Y15.122 E116.54987
G1 X55.845 Y14.773 E116.58906
G1 X55.222 Y11.172 E116.99929
G1 X57.034 Y10.859 E117.2057
G1 X57.718 Y14.801 E117.65481
G1 X66.613 Y13.607 E118.66226
G1 X76.377 Y12.775 E119.76227
G1 X81.148 Y12.533 E120.29852
G1 X92.097 Y12.533 E121.52757
G1 X96.858 Y12.774 E122.0627
G1 X106.632 Y13.607 E123.16383
G1 X111.015 Y14.191 E123.66019
G1 X115.526 Y14.799 E124.17114
G1 X116.211 Y10.859 E124.62005
G1 X118.024 Y11.172 E124.82657
G1 X117.343 Y15.109 E125.27508
G1 X118.176 Y15.255 E125.37001
G1 X127.895 Y17.205 E126.48274
G1 X133.937 Y18.616 E127.17922
G1 X141.245 Y20.651 E128.03078
G1 X142.334 Y21 E128.15914
G1 X143.397 Y21.354 E128.28491
G1 X146.125 Y22.35 E128.61091
G1 X149.094 Y23.707 E128.97735
G1 X151.452 Y25.171 E129.28891
G1 X153.318 Y26.739 E129.56251
G1 X154.766 Y28.365 E129.80691
G1 X155.869 Y30.048 E130.03279
G1 X156.633 Y31.74 E130.24119
G1 X157.197 Y33.796 E130.48051
G1 X157.686 Y37.28 E130.87543
G1 X158.156 Y43.254 E131.5481
G1 X159.573 Y65.698 E134.07252
G1 X164.333 Y66.231 E134.61019
G1 X164.128 Y68.051 E134.81578
G1 X159.692 Y67.555 E135.31684
G1 X160.35 Y78.007 E136.49243
G1 X160.584 Y81.892 E136.92932
G1 X160.811 Y86.061 E137.39799
G1 X166.423 Y113.75 E140.56936
G1 X166.532 Y114.121 E140.61277
G1 X166.709 Y114.478 E140.6575
G1 X166.946 Y114.8 E140.70238
G1 X167.235 Y115.076 E140.74724
G1 X167.566 Y115.297 E140.79192
G1 X167.932 Y115.458 E140.8368
G1 X168.319 Y115.553 E140.88153
G1 X168.717 Y115.581 E140.92632
G1 X169.115 Y115.54 E140.97123
G1 X169.498 Y115.429 E141.01599
G1 X169.855 Y115.255 E141.06057
G1 X169.957 Y115.184 E141.07453
G1 X170.046 Y115.096 E141.08857
G1 X170.119 Y115 E141.10211
G1 X170.179 Y114.89 E141.11618
G1 X170.219 Y114.773 E141.13006
G1 X170.241 Y114.655 E141.14353
G1 X170.246 Y114.53 E141.15757
G1 X170.231 Y114.419 E141.17015
G1 X169.157 Y109.119 E141.77718
G1 X169.368 Y109.139 E141.80097
G1 X169.957 Y109.283 E141.86904
G1 X170.524 Y109.512 E141.93768
G1 X170.955 Y109.763 E141.99367
G1 X172.157 Y115.613 E142.66407
G1 X171.81 Y116.071 E142.72857
G1 X171.294 Y116.559 E142.80829
G1 X170.705 Y116.953 E142.88784
G1 X170.058 Y117.242 E142.96738
G1 X169.368 Y117.418 E143.04731
G1 X168.662 Y117.476 E143.12683
G1 X167.954 Y117.416 E143.20659
G1 X167.269 Y117.236 E143.2861
G0 F9000 X167.49 Y116.615
G1 F2700 E138.2861
G0 F9000 X169.227 Y116.556
G0 X169.764 Y116.419
G0 X170.282 Y116.188
G0 X170.752 Y115.873
G0 X171.22 Y115.402
G0 X171.104 Y114.966
G0 X168.732 Y116.455
G0 X167.022 Y115.342
G0 X166.69 Y115.025
G0 X166.418 Y114.655
G0 X166.157 Y113.989
G0 X159.923 Y84.665
G0 X159.545 Y84.685
;TYPE:SKIN
G1 F2700 E143.2861
G1 F2100 X157.336 Y80.697 E143.79785
G1 X154.402 Y76.085 E144.41144
G1 X151.161 Y71.678 E145.02551
G1 X147.63 Y67.501 E145.63948
G1 X143.825 Y63.57 E146.25361
G1 X139.763 Y59.906 E146.86767
G1 X135.466 Y56.525 E147.48143
G1 X130.947 Y53.441 E148.09557
G1 X126.231 Y50.667 E148.70975
G1 X121.34 Y48.218 E149.32376
G1 X116.296 Y46.106 E149.93759
G1 X111.117 Y44.338 E150.55189
G1 X105.835 Y42.924 E151.16569
G1 X100.466 Y41.869 E151.7799
G1 X95.041 Y41.177 E152.39381
G1 X94.53 Y41.147 E152.45127
G1 X90.098 Y40.872 E152.94973
G1 X83.145 Y40.871 E153.73022
G1 X78.202 Y41.177 E154.28615
G1 X72.779 Y41.869 E154.89984
G1 X67.41 Y42.924 E155.51405
G1 X62.128 Y44.338 E156.12785
G1 X56.949 Y46.106 E156.74215
G1 X51.905 Y48.218 E157.35598
G1 X47.013 Y50.667 E157.97009
G1 X42.297 Y53.441 E158.58427
G1 X37.779 Y56.525 E159.19832
G1 X33.481 Y59.906 E159.81217
G1 X29.418 Y63.57 E160.42631
G1 X25.615 Y67.501 E161.04028
G1 X22.083 Y71.678 E161.65432
G1 X18.843 Y76.085 E162.26833
G1 X15.909 Y80.697 E162.88192
G1 X13.698 Y84.688 E163.39408
G1 X13.868 Y81.657 E163.73485
G1 X14.467 Y71.945 E164.82712
G1 X14.792 Y66.769 E165.40929
G1 X14.796 Y66.769 E165.40974
G1 X16.274 Y43.353 E168.04348
G1 X16.743 Y37.4 E168.71379
G1 X17.215 Y34.045 E169.09411
G1 X17.737 Y32.138 E169.31605
G1 X18.418 Y30.631 E169.50169
G1 X19.43 Y29.087 E169.70892
G1 X20.758 Y27.596 E169.93305
G1 X22.496 Y26.135 E170.18792
G1 X24.706 Y24.762 E170.47998
G1 X27.579 Y23.449 E170.83456
G1 X30.24 Y22.478 E171.15253
G1 X31.279 Y22.132 E171.27546
G1 X32.449 Y21.758 E171.41334
G1 X39.614 Y19.765 E172.24817
G1 X45.593 Y18.371 E172.93733
G1 X45.801 Y18.328 E172.96117
G1 X55.373 Y16.41 E174.05702
G1 X56.997 Y16.129 E174.24203
G1 X56.998 Y16.099 E174.2454
G1 X66.732 Y14.791 E175.34789
G1 X76.458 Y13.963 E176.44361
G1 X81.188 Y13.723 E176.97525
G1 X92.057 Y13.723 E178.19532
G1 X96.777 Y13.962 E178.72584
G1 X106.516 Y14.792 E179.82303
G1 X110.858 Y15.37 E180.31473
G1 X115.971 Y16.058 E180.89386
G1 X115.968 Y16.077 E180.89601
G1 X118.012 Y16.435 E181.12895
G1 X127.655 Y18.37 E182.23299
G1 X133.63 Y19.765 E182.92173
G1 X140.903 Y21.791 E183.76924
G1 X141.957 Y22.129 E183.89348
G1 X143.004 Y22.478 E184.01737
G1 X145.666 Y23.449 E184.33545
G1 X148.539 Y24.762 E184.69003
G1 X150.752 Y26.137 E184.98249
G1 X152.485 Y27.593 E185.23657
G1 X153.817 Y29.088 E185.46134
G1 X154.827 Y30.63 E185.66826
G1 X155.508 Y32.138 E185.854
G1 X156.03 Y34.045 E186.07594
G1 X156.502 Y37.4 E186.45625
G1 X156.969 Y43.329 E187.12386
G1 X159.163 Y78.08 E191.03253
G1 X159.379 Y81.657 E191.43479
G1 X159.545 Y84.685 E191.77521
G1 F2700 E186.77521
G0 F9000 X159.923 Y84.666
G0 X166.29 Y115.377
G0 X169.813 Y116.244
G0 X171.104 Y114.966
G0 X171.22 Y115.402
G0 X170.752 Y115.873
G0 X170.282 Y116.188
G0 X169.764 Y116.419
G0 X169.227 Y116.556
G0 X168.665 Y116.603
G0 X168.101 Y116.554
G0 X167.559 Y116.412
G0 X167.054 Y116.182
G0 X166.584 Y115.866
G0 X166.175 Y115.471
G0 X165.849 Y115.029
G0 X165.59 Y114.517
G0 X165.415 Y113.947
G0 X159.014 Y84.36
G0 X153.701 Y76.566
G0 X150.493 Y72.206
G0 X146.999 Y68.073
G0 X143.233 Y64.183
G0 X139.214 Y60.557
G0 X134.962 Y57.211
G0 X130.491 Y54.16
G0 X125.824 Y51.414
G0 X120.985 Y48.992
G0 X115.994 Y46.901
G0 X110.869 Y45.152
G0 X105.642 Y43.754
