;FLAVOR:Marlin
;TIME:1855
;Filament used: 4.27444m
;Layer height: 0.3
;MINX:32.542
;MINY:64.187
;MINZ:0.2
;MAXX:201.491
;MAXY:171.826
;MAXZ:11.9
;Generated with Cura_SteamEngine 4.5.0
M140 S50
M105
M190 S50
M104 S230
M105
M109 S230
M82 ;absolute extrusion mode
; Ender 3 Custom Start G-code
G92 E0 ; Reset Extruder
G28 ; Home all axes
G1 Z2.0 F3000 ; Move Z Axis up little to prevent scratching of Heat Bed
G1 X0.1 Y20 Z0.3 F5000.0 ; Move to start position
G1 X0.1 Y200.0 Z0.3 F1500.0 E15 ; Draw the first line
G1 X0.4 Y200.0 Z0.3 F5000.0 ; Move to side a little
G1 X0.4 Y20 Z0.3 F1500.0 E30 ; Draw the second line
G92 E0 ; Reset Extruder
G1 Z2.0 F3000 ; Move Z Axis up little to prevent scratching of Heat Bed
G1 X5 Y20 Z0.3 F5000.0 ; Move over to prevent blob squish
G92 E0
G92 E0
G1 F2700 E-5
;LAYER_COUNT:40
;LAYER:0
M107
;MESH:FastShield V4.4.2-Test.STL
G0 F9000 X53.019 Y79.249 Z0.2
;TYPE:WALL-INNER
G1 F2700 E0
G1 F4200 X55.311 Y77.825 E0.13462
G1 X58.204 Y76.503 E0.29331
G1 X60.931 Y75.506 E0.43817
G1 X61.978 Y75.157 E0.49323
G1 X63.033 Y74.819 E0.5485
G1 X70.228 Y72.812 E0.92116
G1 X76.788 Y71.284 E1.2572
G1 X86.474 Y69.358 E1.7499
G1 X87.624 Y69.164 E1.80808
G1 X87.623 Y69.159 E1.80834
G1 X97.202 Y67.831 E2.29081
G1 X106.88 Y66.988 E2.77547
G1 X112.038 Y66.72 E3.03315
G1 X122.962 Y66.72 E3.57815
G1 X128.12 Y66.988 E3.83583
G1 X137.798 Y67.831 E4.3205
G1 X147.388 Y69.16 E4.80352
G1 X148.647 Y69.38 E4.86728
G1 X158.22 Y71.285 E5.35425
G1 X164.772 Y72.812 E5.68989
G1 X171.909 Y74.802 E6.05954
G1 X173.029 Y75.16 E6.1182
G1 X174.069 Y75.506 E6.17288
G1 X176.796 Y76.503 E6.31774
G1 X179.693 Y77.827 E6.47665
G1 X181.978 Y79.246 E6.61084
G1 X183.79 Y80.77 E6.72897
G1 X185.142 Y82.293 E6.83057
G1 X186.205 Y83.907 E6.92699
G1 X186.933 Y85.513 E7.01496
G1 X187.479 Y87.487 E7.11714
G1 X187.969 Y90.945 E7.29138
G1 X188.435 Y96.88 E7.58839
G1 X189.715 Y117.164 E8.60238
G1 X189.771 Y117.17 E8.60519
G1 X194.839 Y117.737 E8.85961
G1 X194.804 Y118.049 E8.87527
G1 X190.09 Y117.521 E9.11192
G1 X189.737 Y117.482 E9.12898
G1 X189.759 Y117.837 E9.13994
G1 X190.629 Y131.642 E9.83004
G1 X190.862 Y135.513 E10.02352
G1 X191.093 Y139.729 E10.23417
G1 X196.717 Y167.481 E11.64687
G1 X196.843 Y167.913 E11.66932
G1 X197.056 Y168.352 E11.69366
G1 X197.341 Y168.749 E11.71804
G1 X197.687 Y169.092 E11.74235
G1 X198.081 Y169.37 E11.76641
G1 X198.294 Y169.475 E11.77825
G1 X198.518 Y169.537 E11.78985
G1 X198.744 Y169.565 E11.80121
G1 X198.975 Y169.553 E11.81275
G1 X199.199 Y169.506 E11.82417
G1 X199.41 Y169.422 E11.8355
G1 X199.609 Y169.305 E11.84702
G1 X199.786 Y169.154 E11.85862
G1 X199.932 Y168.983 E11.86984
G1 X200.053 Y168.784 E11.88146
G1 X200.138 Y168.566 E11.89313
G1 X200.185 Y168.344 E11.90446
G1 X200.197 Y168.112 E11.91605
G1 X200.172 Y167.918 E11.9258
G1 X199.289 Y163.558 E12.14774
G1 X199.241 Y163.317 E12.16
G1 X199.236 Y163.296 E12.16108
G1 X199.449 Y163.274 E12.16728
G1 X199.695 Y163.283 E12.17646
G1 X199.938 Y163.293 E12.18859
G1 X200.844 Y167.71 E12.41355
G1 X200.887 Y168.073 E12.43178
G1 X200.873 Y168.427 E12.44946
G1 X200.803 Y168.762 E12.46653
G1 X200.678 Y169.084 E12.48377
G1 X200.502 Y169.378 E12.50086
G1 X200.287 Y169.635 E12.51758
G1 X200.018 Y169.864 E12.5352
G1 X199.725 Y170.041 E12.55228
G1 X199.405 Y170.167 E12.56944
G1 X199.07 Y170.24 E12.58654
G1 X198.721 Y170.257 E12.60398
G1 X198.38 Y170.219 E12.62109
G1 X198.053 Y170.124 E12.63808
G1 X197.743 Y169.977 E12.6552
G1 X197.256 Y169.636 E12.68486
G1 X196.83 Y169.218 E12.71464
G1 X196.481 Y168.739 E12.7442
G1 X196.209 Y168.189 E12.77481
G1 X196.03 Y167.599 E12.80557
G1 X189.832 Y138.294 E14.29995
G1 X189.456 Y137.614 E14.33872
G1 X187.755 Y134.558 E14.51321
G1 X184.84 Y129.974 E14.78423
G1 X181.62 Y125.597 E15.05532
G1 X178.113 Y121.447 E15.32639
G1 X174.332 Y117.542 E15.59757
G1 X170.297 Y113.902 E15.86869
G1 X166.028 Y110.542 E16.13973
G1 X161.54 Y107.478 E16.41084
G1 X156.855 Y104.723 E16.68199
G1 X151.995 Y102.29 E16.95314
G1 X146.984 Y100.191 E17.22419
G1 X141.84 Y98.437 E17.49533
G1 X136.592 Y97.031 E17.76639
G1 X131.259 Y95.983 E18.03754
G1 X125.87 Y95.297 E18.30857
G1 X120.959 Y94.992 E18.55406
G1 X119.706 Y94.991 E18.61657
G1 X114.042 Y94.992 E18.89915
G1 X113.538 Y95.022 E18.92434
G1 X109.131 Y95.298 E19.14463
G1 X103.741 Y95.983 E19.4157
G1 X98.408 Y97.031 E19.68686
G1 X93.16 Y98.437 E19.95791
G1 X88.016 Y100.191 E20.22906
G1 X83.005 Y102.29 E20.5001
G1 X78.145 Y104.723 E20.77126
G1 X73.46 Y107.478 E21.04241
G1 X68.972 Y110.542 E21.31352
G1 X64.703 Y113.902 E21.58456
G1 X60.668 Y117.542 E21.85567
G1 X56.887 Y121.447 E22.12685
G1 X53.38 Y125.597 E22.39793
G1 X50.16 Y129.974 E22.66902
G1 X47.244 Y134.558 E22.94007
G1 X47.01 Y134.981 E22.96419
G1 X45.169 Y138.289 E23.15306
G1 X44.926 Y139.435 E23.2115
G1 X38.98 Y167.573 E24.64632
G1 X38.8 Y168.173 E24.67757
G1 X38.54 Y168.705 E24.70711
G1 X38.189 Y169.195 E24.73718
G1 X37.765 Y169.617 E24.76703
G1 X37.276 Y169.963 E24.79691
G1 X36.961 Y170.116 E24.81438
G1 X36.636 Y170.213 E24.8313
G1 X36.289 Y170.255 E24.84874
G1 X35.945 Y170.242 E24.86592
G1 X35.604 Y170.171 E24.88329
G1 X35.294 Y170.051 E24.89988
G1 X34.993 Y169.872 E24.91735
G1 X34.731 Y169.652 E24.93442
G1 X34.508 Y169.391 E24.95154
G1 X34.327 Y169.092 E24.96898
G1 X34.203 Y168.777 E24.98587
G1 X34.129 Y168.441 E25.00304
G1 X34.112 Y168.091 E25.02052
G1 X34.153 Y167.721 E25.03909
G1 X35.05 Y163.297 E25.2643
G1 X35.286 Y163.285 E25.27609
G1 X35.523 Y163.274 E25.28792
G1 X35.752 Y163.295 E25.29939
G1 X35.748 Y163.318
G1 X35.702 Y163.55 E25.30831
G1 X34.827 Y167.919 E25.53061
G1 X34.803 Y168.112 E25.54032
G1 X34.815 Y168.344 E25.55191
G1 X34.862 Y168.566 E25.56323
G1 X34.947 Y168.784 E25.5749
G1 X35.068 Y168.983 E25.58652
G1 X35.214 Y169.154 E25.59774
G1 X35.391 Y169.305 E25.60935
G1 X35.59 Y169.422 E25.62086
G1 X35.801 Y169.506 E25.63219
G1 X36.025 Y169.553 E25.64361
G1 X36.256 Y169.565 E25.65515
G1 X36.482 Y169.537 E25.66651
G1 X36.706 Y169.475 E25.67811
G1 X36.919 Y169.37 E25.68996
G1 X37.313 Y169.092 E25.71401
G1 X37.659 Y168.749 E25.73832
G1 X37.944 Y168.352 E25.7627
G1 X38.157 Y167.913 E25.78705
G1 X38.283 Y167.481 E25.8095
G1 X43.906 Y139.739 E27.22169
G1 X44.041 Y137.208 E27.34815
G1 X44.136 Y135.554 E27.4308
G1 X44.733 Y125.873 E27.91471
G1 X45.239 Y117.837 E28.31642
G1 X45.261 Y117.482 E28.33416
G1 X44.908 Y117.521 E28.3451
G1 X40.197 Y118.05 E28.58161
G1 X40.162 Y117.738 E28.59728
G1 X45.226 Y117.171 E28.8515
G1 X45.285 Y117.164 E28.85446
G1 X46.564 Y96.894 E29.86775
G1 X47.033 Y90.933 E30.16607
G1 X47.508 Y87.534 E30.33729
G1 X48.037 Y85.593 E30.43766
G1 X48.757 Y83.976 E30.52597
G1 X49.802 Y82.367 E30.62168
G1 X51.181 Y80.802 E30.72575
G1 X53.019 Y79.249 E30.8458
G1 F2700 E25.8458
G0 F9000 X55.439 Y78.064
G0 X58.312 Y76.751
G0 X70.114 Y72.417
G0 X87.14 Y68.818
G0 X86.968 Y65.218
G1 F2700 E30.8458
G1 F4200 X87.265 Y65.166 E30.86084
G1 X87.472 Y66.36 E30.9213
G1 X87.641 Y67.335 E30.97067
G1 X87.334 Y67.388 E30.98621
G1 X87.175 Y66.412 E31.01135
G1 X86.968 Y65.218 E31.0417
G1 F2700 E26.0417
G0 F9000 X87.094 Y67.857
G0 X87.24 Y68.787
G0 X112.035 Y66.309
G0 X137.802 Y67.408
G0 X147.76 Y68.787
G0 X147.891 Y67.95
G0 X147.734 Y65.165
G1 F2700 E31.0417
G1 F4200 X148.037 Y65.218 E31.05705
G1 X147.669 Y67.388 E31.16686
G1 X147.36 Y67.335 E31.1825
G1 X147.734 Y65.165 E31.23935
G1 F2700 E26.23935
G0 F9000 X148.24 Y66.493
G0 X147.851 Y68.813
G0 X164.698 Y73.073
G0 X172.943 Y75.416
G0 X176.688 Y76.751
G0 X179.565 Y78.066
G0 X181.818 Y79.465
G0 X183.599 Y80.964
G0 X184.926 Y82.458
G0 X185.97 Y84.042
G0 X186.676 Y85.602
G0 X187.214 Y87.545
G0 X187.7 Y90.976
G0 X188.165 Y96.898
G0 X190.824 Y139.763
G0 X197.512 Y169.3
G0 X200.152 Y169.142
G0 X199.582 Y163.566
G0 X199.708 Y163.564
G0 X200.615 Y168.083
G0 X200.544 Y168.682
G0 X200.282 Y169.219
G0 X199.857 Y169.645
G0 X199.328 Y169.907
G0 X198.727 Y169.985
G0 X198.564 Y169.953
G0 X196.562 Y169.445
G0 X196.374 Y169.61
;TYPE:WALL-OUTER
G1 F2700 E31.23935
G1 F4200 X195.964 Y169.047 E31.2741
G1 X195.651 Y168.416 E31.30924
G1 X195.448 Y167.747 E31.34412
G1 X189.264 Y138.506 E32.83522
G1 X188.931 Y137.905 E32.8695
G1 X187.239 Y134.865 E33.04308
G1 X184.345 Y130.313 E33.31219
G1 X181.149 Y125.969 E33.58125
G1 X177.668 Y121.85 E33.8503
G1 X173.915 Y117.974 E34.11947
G1 X169.91 Y114.361 E34.38857
G1 X165.673 Y111.026 E34.65758
G1 X161.218 Y107.985 E34.92669
G1 X156.568 Y105.25 E35.19583
G1 X151.745 Y102.836 E35.46491
G1 X146.771 Y100.752 E35.73396
G1 X141.665 Y99.011 E36.0031
G1 X136.456 Y97.616 E36.27214
G1 X131.163 Y96.576 E36.54126
G1 X125.813 Y95.895 E36.81032
G1 X120.94 Y95.592 E37.05391
G1 X119.706 Y95.591 E37.11547
G1 X114.06 Y95.592 E37.39715
G1 X113.575 Y95.621 E37.42139
G1 X109.188 Y95.896 E37.64069
G1 X103.837 Y96.576 E37.9098
G1 X98.544 Y97.616 E38.17892
G1 X93.335 Y99.011 E38.44795
G1 X88.229 Y100.752 E38.71709
G1 X83.255 Y102.836 E38.98615
G1 X78.432 Y105.25 E39.25523
G1 X73.782 Y107.985 E39.52437
G1 X69.327 Y111.026 E39.79347
G1 X65.09 Y114.361 E40.06249
G1 X61.085 Y117.974 E40.33159
G1 X57.332 Y121.85 E40.60076
G1 X53.851 Y125.969 E40.86981
G1 X50.655 Y130.313 E41.13887
G1 X47.76 Y134.864 E41.40796
G1 X47.534 Y135.273 E41.43128
G1 X45.737 Y138.502 E41.61564
G1 X45.513 Y139.559 E41.66954
G1 X39.561 Y167.724 E43.10574
G1 X39.362 Y168.39 E43.14041
G1 X39.057 Y169.014 E43.17507
G1 X38.648 Y169.584 E43.21007
G1 X38.149 Y170.081 E43.2452
G1 X37.584 Y170.481 E43.27974
G1 X37.18 Y170.677 E43.30214
G1 X36.755 Y170.803 E43.32426
G1 X36.314 Y170.857 E43.34642
G1 X35.872 Y170.84 E43.36849
G1 X35.438 Y170.75 E43.3906
G1 X35.029 Y170.591 E43.4125
G1 X34.645 Y170.363 E43.43478
G1 X34.306 Y170.078 E43.45687
G1 X34.019 Y169.743 E43.47888
G1 X33.789 Y169.362 E43.50108
G1 X33.627 Y168.952 E43.52308
G1 X33.533 Y168.521 E43.54509
G1 X33.51 Y168.073 E43.56747
G1 X33.56 Y167.626 E43.58991
G1 X34.543 Y162.777 E43.83674
G1 X34.941 Y162.702 E43.85695
G1 X35.541 Y162.673 E43.88692
G1 X36.138 Y162.727 E43.91683
G1 X36.462 Y162.805 E43.93345
G1 X35.42 Y168.015 E44.19853
G1 X35.405 Y168.134 E44.20451
G1 X35.412 Y168.266 E44.21111
G1 X35.439 Y168.394 E44.21763
G1 X35.487 Y168.517 E44.22422
G1 X35.556 Y168.63 E44.23083
G1 X35.64 Y168.729 E44.2373
G1 X35.74 Y168.814 E44.24385
G1 X35.854 Y168.881 E44.25045
G1 X35.975 Y168.929 E44.25694
G1 X36.103 Y168.956 E44.26347
G1 X36.235 Y168.963 E44.27006
G1 X36.365 Y168.947 E44.2766
G1 X36.492 Y168.912 E44.28317
G1 X36.612 Y168.853 E44.28984
G1 X36.926 Y168.631 E44.30903
G1 X37.201 Y168.359 E44.32832
G1 X37.426 Y168.044 E44.34764
G1 X37.595 Y167.696 E44.36694
G1 X37.7 Y167.337 E44.3856
G1 X43.309 Y139.663 E45.79433
G1 X43.442 Y137.174 E45.91869
G1 X43.537 Y135.517 E46.00149
G1 X44.134 Y125.836 E46.4854
G1 X44.618 Y118.158 E46.86921
G1 X39.668 Y118.713 E47.11772
G1 X39.499 Y117.209 E47.19322
G1 X44.718 Y116.624 E47.45523
G1 X45.966 Y96.847 E48.44387
G1 X46.436 Y90.869 E48.74304
G1 X46.92 Y87.41 E48.91729
G1 X47.469 Y85.393 E49.02158
G1 X48.228 Y83.688 E49.11469
G1 X49.323 Y82.002 E49.21499
G1 X50.758 Y80.375 E49.32322
G1 X52.67 Y78.759 E49.44812
G1 X55.027 Y77.295 E49.58654
G1 X57.975 Y75.947 E49.74827
G1 X60.725 Y74.942 E49.89434
G1 X61.788 Y74.588 E49.95024
G1 X62.872 Y74.241 E50.00702
G1 X70.071 Y72.233 E50.37989
G1 X76.659 Y70.698 E50.71737
G1 X86.374 Y68.767 E51.21154
G1 X86.936 Y68.672 E51.23997
G1 X86.583 Y66.512 E51.34916
G1 X86.274 Y64.729 E51.43944
G1 X87.754 Y64.473 E51.51438
G1 X88.334 Y67.823 E51.684
G1 X87.297 Y68.003 E51.73651
G1 X87.388 Y68.586 E51.76594
G1 X97.147 Y67.233 E52.25748
G1 X106.828 Y66.39 E52.74229
G1 X112.026 Y66.12 E53.00197
G1 X122.974 Y66.12 E53.54817
G1 X128.172 Y66.39 E53.80785
G1 X137.853 Y67.233 E54.29267
G1 X147.612 Y68.586 E54.7842
G1 X147.703 Y68.003 E54.81364
G1 X146.667 Y67.823 E54.8661
G1 X147.245 Y64.472 E55.03575
G1 X148.728 Y64.729 E55.11084
G1 X148.427 Y66.524 E55.20164
G1 X148.056 Y68.668 E55.3102
G1 X148.75 Y68.789 E55.34534
G1 X158.35 Y70.7 E55.83369
G1 X164.929 Y72.233 E56.17071
G1 X172.092 Y74.23 E56.5417
G1 X173.212 Y74.588 E56.60036
G1 X174.275 Y74.942 E56.65626
G1 X177.025 Y75.947 E56.80233
G1 X179.973 Y77.295 E56.96405
G1 X182.33 Y78.758 E57.10246
G1 X184.211 Y80.34 E57.22508
G1 X185.619 Y81.927 E57.33092
G1 X186.731 Y83.615 E57.43177
G1 X187.499 Y85.308 E57.52452
G1 X188.068 Y87.366 E57.63104
G1 X188.565 Y90.878 E57.808
G1 X189.034 Y96.842 E58.10647
G1 X190.282 Y116.624 E59.09536
G1 X195.502 Y117.208 E59.35741
G1 X195.333 Y118.712 E59.43292
G1 X190.381 Y118.158 E59.68151
G1 X191.228 Y131.606 E60.35377
G1 X191.461 Y135.48 E60.54739
G1 X191.69 Y139.653 E60.75589
G1 X197.3 Y167.337 E62.16513
G1 X197.405 Y167.696 E62.18379
G1 X197.574 Y168.044 E62.20309
G1 X197.799 Y168.359 E62.2224
G1 X198.074 Y168.631 E62.2417
G1 X198.388 Y168.853 E62.26089
G1 X198.508 Y168.912 E62.26756
G1 X198.635 Y168.947 E62.27413
G1 X198.765 Y168.963 E62.28066
G1 X198.897 Y168.956 E62.28726
G1 X199.025 Y168.929 E62.29378
G1 X199.146 Y168.881 E62.30028
G1 X199.26 Y168.814 E62.30688
G1 X199.36 Y168.729 E62.31342
G1 X199.444 Y168.63 E62.3199
G1 X199.513 Y168.517 E62.32651
G1 X199.561 Y168.394 E62.33309
G1 X199.588 Y168.266 E62.33962
G1 X199.595 Y168.134 E62.34622
G1 X199.58 Y168.015 E62.3522
G1 X198.525 Y162.808 E62.61726
G1 X198.835 Y162.733 E62.63317
G1 X199.434 Y162.673 E62.6632
G1 X200.031 Y162.696 E62.69301
G1 X200.444 Y162.774 E62.71398
G1 X201.437 Y167.612 E62.96038
G1 X201.489 Y168.052 E62.98248
G1 X201.471 Y168.497 E63.0047
G1 X201.38 Y168.932 E63.02687
G1 X201.219 Y169.347 E63.04908
G1 X200.992 Y169.728 E63.07121
G1 X200.712 Y170.061 E63.09291
G1 X200.371 Y170.351 E63.11525
G1 X199.991 Y170.581 E63.13741
G1 X199.579 Y170.744 E63.15951
G1 X199.152 Y170.836 E63.1813
G1 X198.702 Y170.858 E63.20378
G1 X198.263 Y170.809 E63.22582
G1 X197.842 Y170.687 E63.24769
G1 X197.44 Y170.497 E63.26987
G1 X196.871 Y170.098 E63.30454
G1 X196.374 Y169.61 E63.33929
G0 F9000 X196.873 Y169.179
G1 F2700 E58.33929
G0 F9000 X196.35 Y167.689
G0 X190.049 Y138.301
G0 X190.42 Y138.224
;TYPE:SKIN
G1 F2700 E63.33929
G1 F4200 X190.391 Y138.086 E63.34633
G1 X189.973 Y137.328 E63.38951
G1 X188.262 Y134.257 E63.5649
G1 X185.327 Y129.64 E63.83785
G1 X182.084 Y125.231 E64.11091
G1 X178.551 Y121.051 E64.38396
G1 X174.742 Y117.117 E64.65715
G1 X170.677 Y113.45 E64.93028
G1 X166.378 Y110.066 E65.20323
G1 X161.856 Y106.98 E65.47636
G1 X157.137 Y104.204 E65.74951
G1 X152.241 Y101.753 E66.02267
G1 X147.193 Y99.639 E66.29571
G1 X142.011 Y97.872 E66.56886
G1 X136.726 Y96.456 E66.84183
G1 X131.353 Y95.401 E67.11501
G1 X125.925 Y94.709 E67.388
G1 X120.977 Y94.402 E67.63533
G1 X119.706 Y94.401 E67.69874
G1 X114.024 Y94.402 E67.98222
G1 X109.076 Y94.71 E68.22955
G1 X103.647 Y95.401 E68.50259
G1 X98.274 Y96.456 E68.77577
G1 X92.989 Y97.872 E69.04874
G1 X87.807 Y99.639 E69.32189
G1 X82.759 Y101.753 E69.59493
G1 X77.863 Y104.204 E69.86809
G1 X73.144 Y106.98 E70.14123
G1 X68.622 Y110.066 E70.41437
G1 X64.323 Y113.45 E70.68732
G1 X60.258 Y117.117 E70.96045
G1 X56.449 Y121.051 E71.23364
G1 X52.916 Y125.231 E71.50669
G1 X49.673 Y129.64 E71.77975
G1 X46.737 Y134.257 E72.05272
G1 X44.61 Y138.08 E72.27099
G1 X44.577 Y138.234 E72.27884
G1 X44.631 Y137.242 E72.32841
G1 X44.743 Y135.281 E72.4264
G1 X45.321 Y125.909 E72.89486
G1 X45.839 Y117.676 E73.30642
G1 X45.844 Y117.675 E73.30667
G1 X47.152 Y96.941 E74.34315
G1 X47.62 Y90.988 E74.64107
G1 X48.087 Y87.653 E74.80907
G1 X48.593 Y85.793 E74.90524
G1 X49.277 Y84.259 E74.98904
G1 X50.272 Y82.726 E75.08022
G1 X51.594 Y81.226 E75.17997
G1 X53.371 Y79.725 E75.29602
G1 X55.586 Y78.348 E75.42614
G1 X58.431 Y77.048 E75.58219
G1 X61.118 Y76.066 E75.72492
G1 X62.162 Y75.718 E75.77982
G1 X63.208 Y75.383 E75.83462
G1 X70.383 Y73.381 E76.20625
G1 X76.904 Y71.862 E76.5403
G1 X86.572 Y69.94 E77.03207
G1 X87.885 Y69.718 E77.09851
G1 X97.257 Y68.419 E77.57055
G1 X106.911 Y67.578 E78.05402
G1 X112.069 Y67.31 E78.3117
G1 X122.931 Y67.31 E78.8536
G1 X128.089 Y67.578 E79.11128
G1 X137.743 Y68.419 E79.59475
G1 X147.251 Y69.736 E80.07363
G1 X148.596 Y69.971 E80.14175
G1 X158.104 Y71.863 E80.62541
G1 X164.617 Y73.381 E80.95905
G1 X171.74 Y75.368 E81.32799
G1 X172.842 Y75.72 E81.3857
