;FLAVOR:Marlin
;TIME:1798
;Filament used: 4.48542m
;Layer height: 0.3
;MINX:31.965
;MINY:64.083
;MINZ:0.3
;MAXX:203.034
;MAXY:170.963
;MAXZ:12
;Generated with Cura_SteamEngine 4.5.0
M140 S50
M105
M190 S50
M104 S230
M105
M109 S230
M82 ;absolute extrusion mode
; Ender 3 Custom Start G-code
G92 E0 ; Reset Extruder
G28 ; Home all axes
G1 Z2.0 F3000 ; Move Z Axis up little to prevent scratching of Heat Bed
G1 X0.1 Y20 Z0.3 F5000.0 ; Move to start position
G1 X0.1 Y200.0 Z0.3 F1500.0 E15 ; Draw the first line
G1 X0.4 Y200.0 Z0.3 F5000.0 ; Move to side a little
G1 X0.4 Y20 Z0.3 F1500.0 E30 ; Draw the second line
G92 E0 ; Reset Extruder
G1 Z2.0 F3000 ; Move Z Axis up little to prevent scratching of Heat Bed
G1 X5 Y20 Z0.3 F5000.0 ; Move over to prevent blob squish
G92 E0
G92 E0
G1 F2700 E-5
;LAYER_COUNT:40
;LAYER:0
M107
;MESH:FastShield V4.5.0.STL
G0 F9000 X38.171 Y169.111 Z0.3
;TYPE:WALL-INNER
G1 F2700 E0
G1 F4200 X37.742 Y169.533 E0.04503
G1 X37.239 Y169.88 E0.09076
G1 X36.69 Y170.138 E0.13616
G1 X36.107 Y170.297 E0.18138
G1 X35.496 Y170.358 E0.22733
G1 X34.89 Y170.316 E0.27279
G1 X34.3 Y170.172 E0.31824
G1 X33.751 Y169.934 E0.36302
G1 X33.235 Y169.598 E0.4091
G1 X32.79 Y169.184 E0.45459
G1 X32.623 Y168.966 E0.47514
G1 X32.747 Y168.339 E0.52297
G1 X32.754 Y168.303 E0.52571
G1 X32.794 Y168.102 E0.54105
G1 X32.834 Y167.901 E0.55638
G1 X32.869 Y167.729 E0.56952
G1 X33.684 Y163.639 E0.88161
G1 X33.832 Y163.552 E0.89446
G1 X34.174 Y163.411 E0.92215
G1 X34.135 Y163.611 E0.92314
G1 X34.112 Y163.724
G1 X33.296 Y167.813 E1.15
G1 X33.277 Y167.988 E1.15975
G1 X33.282 Y168.198 E1.17225
G1 X33.322 Y168.415 E1.18716
G1 X33.334 Y168.449 E1.18981
G1 X33.395 Y168.616 E1.20311
G1 X33.494 Y168.806 E1.21915
G1 X33.624 Y168.977 E1.23522
G1 X33.78 Y169.131 E1.25163
G1 X33.962 Y169.258 E1.26823
G1 X34.408 Y169.475 E1.30535
G1 X34.894 Y169.614 E1.34318
G1 X35.394 Y169.667 E1.38081
G1 X35.897 Y169.632 E1.41854
G1 X36.385 Y169.512 E1.45615
G1 X36.846 Y169.309 E1.49384
G1 X37.264 Y169.03 E1.53145
G1 X37.628 Y168.682 E1.56914
G1 X37.927 Y168.275 E1.60693
G1 X38.151 Y167.823 E1.64468
G1 X38.282 Y167.379 E1.67933
G1 X43.906 Y139.634 E3.79786
G1 X43.952 Y138.741 E3.86478
G1 X44.139 Y135.414 E4.11415
G1 X44.756 Y125.393 E4.86549
G1 X45.05 Y120.721 E5.21581
G1 X45.051 Y120.72 E5.21592
G1 X45.072 Y120.366 E5.24246
G1 X44.72 Y120.403 E5.25881
G1 X44.719 Y120.404 E5.25892
G1 X43.372 Y120.553 E5.36034
G1 X40.524 Y120.873 E5.57481
G1 X40.486 Y120.542 E5.59974
G1 X40.453 Y120.245 E5.62211
G1 X40.75 Y120.212 E5.63655
G1 X45.116 Y119.722 E5.96533
G1 X46.564 Y96.79 E7.68488
G1 X47.033 Y90.828 E8.13242
G1 X47.513 Y87.407 E8.39094
G1 X48.056 Y85.427 E8.54459
G1 X48.781 Y83.822 E8.67638
G1 X49.835 Y82.213 E8.82033
G1 X51.224 Y80.653 E8.97664
G1 X53.022 Y79.143 E9.15235
G1 X55.312 Y77.721 E9.35407
G1 X58.222 Y76.391 E9.59351
G1 X60.931 Y75.402 E9.80933
G1 X61.97 Y75.056 E9.89128
G1 X63.153 Y74.678 E9.98422
G1 X70.342 Y72.679 E10.54262
G1 X76.351 Y71.277 E11.00439
G1 X76.559 Y71.234 E11.02028
G1 X86.159 Y69.311 E11.75297
G1 X87.299 Y69.113 E11.83956
G1 X87.324 Y68.214 E11.90686
G1 X86.843 Y65.439 E12.11763
G1 X86.792 Y65.145 E12.13996
G1 X87.086 Y65.095 E12.15437
G1 X87.423 Y65.036 E12.17998
G1 X88.104 Y68.956 E12.47773
G1 X97.56 Y67.687 E13.19171
G1 X107.305 Y66.857 E13.92362
G1 X112.035 Y66.617 E14.27805
G1 X122.965 Y66.617 E15.096
G1 X127.685 Y66.856 E15.44967
G1 X137.443 Y67.688 E16.18257
G1 X141.813 Y68.27 E16.51248
G1 X146.895 Y68.954 E16.89623
G1 X147.576 Y65.036 E17.19383
G1 X147.914 Y65.095 E17.2195
G1 X148.208 Y65.145 E17.24182
G1 X148.158 Y65.439 E17.25626
G1 X147.527 Y69.081 E17.53287
G1 X148.96 Y69.332 E17.64174
G1 X158.648 Y71.276 E18.3812
G1 X164.658 Y72.679 E18.84305
G1 X171.962 Y74.713 E19.41044
G1 X173.022 Y75.053 E19.49375
G1 X174.069 Y75.402 E19.57634
G1 X176.778 Y76.391 E19.79216
G1 X179.688 Y77.721 E20.0316
G1 X181.978 Y79.143 E20.23332
G1 X183.776 Y80.653 E20.40903
G1 X185.165 Y82.213 E20.56534
G1 X186.219 Y83.822 E20.70929
G1 X186.944 Y85.427 E20.84108
G1 X187.487 Y87.407 E20.99473
G1 X187.967 Y90.828 E21.25325
G1 X188.435 Y96.776 E21.69975
G1 X189.884 Y119.722 E23.42034
G1 X194.25 Y120.211 E23.74911
G1 X194.547 Y120.244 E23.77147
G1 X194.514 Y120.541 E23.78592
G1 X194.476 Y120.872 E23.81085
G1 X190.279 Y120.402 E24.1269
G1 X189.926 Y120.363 E24.15348
G1 X189.948 Y120.718 E24.16992
G1 X190.628 Y131.527 E24.98041
G1 X190.862 Y135.411 E25.2716
G1 X190.956 Y137.065 E25.39557
G1 X191.092 Y139.621 E25.58712
G1 X196.718 Y167.379 E27.70664
G1 X196.849 Y167.823 E27.74128
G1 X197.073 Y168.275 E27.77903
G1 X197.372 Y168.682 E27.81683
G1 X197.736 Y169.03 E27.85451
G1 X198.154 Y169.309 E27.89212
G1 X198.615 Y169.512 E27.92982
G1 X199.103 Y169.632 E27.96743
G1 X199.606 Y169.667 E28.00516
G1 X200.106 Y169.614 E28.04279
G1 X200.592 Y169.475 E28.08061
G1 X201.038 Y169.258 E28.11773
G1 X201.22 Y169.131 E28.13434
G1 X201.376 Y168.977 E28.15075
G1 X201.506 Y168.806 E28.16682
G1 X201.605 Y168.616 E28.18285
G1 X201.673 Y168.429 E28.19774
G1 X201.678 Y168.415 E28.19886
G1 X201.718 Y168.198 E28.21537
G1 X201.723 Y167.986 E28.23124
G1 X201.702 Y167.809 E28.24458
G1 X200.873 Y163.717 E28.55702
G1 X200.848 Y163.594 E28.56642
G1 X200.809 Y163.403 E28.58101
G1 X201.137 Y163.535 E28.59366
G1 X201.299 Y163.63 E28.60349
G1 X202.136 Y167.72 E28.83219
G1 X202.172 Y167.893 E28.84211
G1 X202.214 Y168.096 E28.85458
G1 X202.256 Y168.296 E28.86795
G1 X202.259 Y168.31 E28.86901
G1 X202.391 Y168.952 E28.91806
G1 X202.243 Y169.148 E28.93644
G1 X201.793 Y169.575 E28.98287
G1 X201.293 Y169.909 E29.02786
G1 X200.734 Y170.159 E29.07369
G1 X200.149 Y170.308 E29.11887
G1 X199.543 Y170.358 E29.16437
G1 X198.929 Y170.305 E29.21049
G1 X198.349 Y170.153 E29.25536
G1 X197.799 Y169.903 E29.30057
G1 X197.292 Y169.561 E29.34634
G1 X196.85 Y169.135 E29.39228
G1 X196.495 Y168.656 E29.4369
G1 X196.218 Y168.107 E29.48291
G1 X196.031 Y167.499 E29.53052
G1 X189.885 Y138.416 E31.75502
G1 X187.706 Y134.482 E32.09157
G1 X184.793 Y129.903 E32.4977
G1 X181.575 Y125.528 E32.90413
G1 X178.07 Y121.381 E33.31047
G1 X174.293 Y117.479 E33.71687
G1 X170.261 Y113.842 E34.12323
G1 X165.994 Y110.485 E34.52953
G1 X161.509 Y107.423 E34.93593
G1 X156.827 Y104.67 E35.34239
G1 X151.971 Y102.239 E35.74878
G1 X146.963 Y100.142 E36.15509
G1 X141.824 Y98.387 E36.56147
G1 X136.579 Y96.983 E36.9678
G1 X131.25 Y95.935 E37.37424
G1 X125.864 Y95.249 E37.78056
G1 X125.373 Y95.22 E37.81737
G1 X120.958 Y94.946 E38.1484
G1 X114.041 Y94.945 E38.66603
G1 X109.135 Y95.249 E39.03388
G1 X103.75 Y95.935 E39.44013
G1 X98.421 Y96.983 E39.84656
G1 X93.176 Y98.387 E40.25289
G1 X88.037 Y100.142 E40.65928
G1 X83.029 Y102.239 E41.06558
G1 X78.173 Y104.67 E41.47198
G1 X73.491 Y107.423 E41.87844
G1 X69.006 Y110.485 E42.28484
G1 X64.739 Y113.842 E42.69114
G1 X60.707 Y117.479 E43.09749
G1 X56.93 Y121.381 E43.50389
G1 X53.425 Y125.528 E43.91023
G1 X50.207 Y129.903 E44.31666
G1 X47.294 Y134.482 E44.7228
G1 X45.114 Y138.417 E45.05945
G1 X44.926 Y139.329 E45.12913
G1 X38.978 Y167.47 E47.2816
G1 X38.798 Y168.072 E47.32862
G1 X38.532 Y168.612 E47.37367
G1 X38.171 Y169.111 E47.41976
G0 F9000 X38.629 Y169.502
;TYPE:WALL-OUTER
G1 F4200 X38.126 Y169.996 E47.47252
G1 X37.539 Y170.402 E47.52593
G1 X36.894 Y170.704 E47.57923
G1 X36.218 Y170.889 E47.63168
G1 X35.502 Y170.96 E47.68552
G1 X34.798 Y170.912 E47.73833
G1 X34.111 Y170.744 E47.79125
G1 X33.461 Y170.462 E47.84428
G1 X32.866 Y170.074 E47.89744
G1 X32.344 Y169.589 E47.95076
G1 X31.982 Y169.115 E47.99539
G1 X33.149 Y163.258 E48.44232
G1 X33.557 Y163.017 E48.47778
G1 X34.125 Y162.782 E48.52378
G1 X34.724 Y162.63 E48.57003
G1 X34.945 Y162.608 E48.58665
G1 X33.89 Y167.905 E48.99084
G1 X33.878 Y168.014 E48.99904
G1 X33.881 Y168.137 E49.00825
G1 X33.903 Y168.258 E49.01745
G1 X33.945 Y168.374 E49.02669
G1 X34.002 Y168.483 E49.03589
G1 X34.076 Y168.58 E49.04502
G1 X34.165 Y168.668 E49.05439
G1 X34.267 Y168.739 E49.06369
G1 X34.624 Y168.913 E49.09341
G1 X35.009 Y169.023 E49.12337
G1 X35.405 Y169.065 E49.15317
G1 X35.804 Y169.037 E49.18311
G1 X36.191 Y168.942 E49.21293
G1 X36.556 Y168.781 E49.24278
G1 X36.887 Y168.56 E49.27257
G1 X37.176 Y168.284 E49.30247
G1 X37.413 Y167.962 E49.33239
G1 X37.59 Y167.604 E49.36228
G1 X37.699 Y167.234 E49.39115
G1 X43.309 Y139.559 E51.50434
G1 X43.353 Y138.707 E51.56818
G1 X43.54 Y135.377 E51.81777
G1 X44.157 Y125.356 E52.56912
G1 X44.429 Y121.04 E52.89275
G1 X43.438 Y121.149 E52.96736
G1 X39.995 Y121.536 E53.22664
G1 X39.79 Y119.716 E53.3637
G1 X44.549 Y119.182 E53.72208
G1 X45.966 Y96.743 E55.40465
G1 X46.436 Y90.764 E55.85347
G1 X46.925 Y87.28 E56.11675
G1 X47.489 Y85.224 E56.2763
G1 X48.253 Y83.532 E56.41523
G1 X49.356 Y81.849 E56.56582
G1 X50.804 Y80.223 E56.72875
G1 X52.67 Y78.655 E56.91115
G1 X55.029 Y77.191 E57.11892
G1 X57.998 Y75.834 E57.36322
G1 X60.725 Y74.838 E57.58048
G1 X61.788 Y74.484 E57.66432
G1 X62.975 Y74.105 E57.75757
G1 X70.185 Y72.1 E58.31761
G1 X76.23 Y70.689 E58.78215
G1 X76.438 Y70.646 E58.79804
G1 X86.049 Y68.721 E59.53157
G1 X86.713 Y68.606 E59.582
G1 X86.723 Y68.257 E59.60813
G1 X86.099 Y64.656 E59.88162
G1 X87.911 Y64.343 E60.01923
G1 X88.596 Y68.285 E60.31866
G1 X97.491 Y67.091 E60.99029
G1 X107.254 Y66.259 E61.72355
G1 X112.025 Y66.017 E62.08105
G1 X122.975 Y66.017 E62.9005
G1 X127.736 Y66.258 E63.25724
G1 X137.509 Y67.091 E63.99126
G1 X141.892 Y67.675 E64.32216
G1 X146.403 Y68.283 E64.6628
G1 X147.088 Y64.343 E64.96207
G1 X148.901 Y64.656 E65.09975
G1 X148.22 Y68.593 E65.39876
G1 X149.064 Y68.741 E65.46288
G1 X158.772 Y70.689 E66.20386
G1 X164.815 Y72.1 E66.66826
G1 X172.123 Y74.135 E67.23596
G1 X173.212 Y74.484 E67.32154
G1 X174.275 Y74.838 E67.40539
G1 X177.002 Y75.834 E67.62265
G1 X179.971 Y77.191 E67.86694
G1 X182.33 Y78.655 E68.07471
G1 X184.196 Y80.223 E68.25711
G1 X185.644 Y81.849 E68.42005
G1 X186.747 Y83.532 E68.57063
G1 X187.511 Y85.224 E68.70956
G1 X188.075 Y87.28 E68.86911
G1 X188.564 Y90.764 E69.13239
G1 X189.034 Y96.738 E69.58084
G1 X190.451 Y119.182 E71.26379
G1 X195.21 Y119.715 E71.62215
G1 X195.005 Y121.535 E71.75922
G1 X190.57 Y121.039 E72.09318
G1 X191.227 Y131.491 E72.8769
G1 X191.461 Y135.377 E73.16824
G1 X191.555 Y137.033 E73.29237
G1 X191.689 Y139.545 E73.48062
G1 X197.301 Y167.234 E75.59487
G1 X197.41 Y167.604 E75.62373
G1 X197.587 Y167.962 E75.65362
G1 X197.824 Y168.284 E75.68354
G1 X198.113 Y168.56 E75.71344
G1 X198.444 Y168.781 E75.74323
G1 X198.809 Y168.942 E75.77308
G1 X199.196 Y169.037 E75.8029
G1 X199.595 Y169.065 E75.83284
G1 X199.991 Y169.023 E75.86264
G1 X200.376 Y168.913 E75.8926
G1 X200.733 Y168.739 E75.92232
G1 X200.835 Y168.668 E75.93162
G1 X200.924 Y168.58 E75.94099
G1 X200.998 Y168.483 E75.95012
G1 X201.055 Y168.374 E75.95932
G1 X201.097 Y168.258 E75.96856
G1 X201.119 Y168.137 E75.97776
G1 X201.122 Y168.014 E75.98697
G1 X201.109 Y167.904 E75.99526
G1 X200.035 Y162.603 E76.40002
G1 X200.245 Y162.623 E76.41581
G1 X200.834 Y162.767 E76.46118
G1 X201.402 Y162.996 E76.50701
G1 X201.833 Y163.247 E76.54434
G1 X203.034 Y169.097 E76.99125
G1 X202.688 Y169.554 E77.03415
G1 X202.172 Y170.043 E77.08735
G1 X201.582 Y170.437 E77.14044
G1 X200.936 Y170.726 E77.1934
G1 X200.246 Y170.902 E77.24669
G1 X199.541 Y170.96 E77.29963
G1 X198.83 Y170.899 E77.35303
G1 X198.147 Y170.72 E77.40587
G1 X197.504 Y170.428 E77.45872
G1 X196.911 Y170.027 E77.51229
G1 X196.4 Y169.536 E77.56533
G1 X195.981 Y168.97 E77.61803
G1 X195.661 Y168.334 E77.67131
G1 X195.449 Y167.647 E77.72511
G1 X189.317 Y138.628 E79.94471
G1 X187.19 Y134.789 E80.27315
G1 X184.298 Y130.242 E80.67642
G1 X181.104 Y125.9 E81.0798
G1 X177.625 Y121.784 E81.48311
G1 X173.876 Y117.911 E81.8865
G1 X169.874 Y114.301 E82.28983
G1 X165.639 Y110.969 E82.69309
G1 X161.187 Y107.93 E83.09648
G1 X156.54 Y105.197 E83.49993
G1 X151.721 Y102.785 E83.90321
G1 X146.75 Y100.703 E84.30652
G1 X141.649 Y98.961 E84.7099
G1 X136.443 Y97.568 E85.1132
G1 X131.154 Y96.528 E85.51659
G1 X125.808 Y95.847 E85.91989
G1 X125.336 Y95.819 E85.95527
G1 X120.939 Y95.546 E86.28496
G1 X114.06 Y95.545 E86.79975
G1 X109.192 Y95.847 E87.16475
G1 X103.846 Y96.528 E87.56805
G1 X98.557 Y97.568 E87.97143
G1 X93.351 Y98.961 E88.37473
G1 X88.25 Y100.703 E88.77811
G1 X83.279 Y102.785 E89.18143
G1 X78.46 Y105.197 E89.58471
G1 X73.813 Y107.93 E89.98816
G1 X69.361 Y110.969 E90.39154
G1 X65.126 Y114.301 E90.7948
G1 X61.124 Y117.911 E91.19814
G1 X57.375 Y121.784 E91.60152
G1 X53.896 Y125.9 E92.00483
G1 X50.702 Y130.242 E92.40821
G1 X47.81 Y134.789 E92.81148
G1 X45.683 Y138.628 E93.13993
G1 X45.513 Y139.453 E93.20296
G1 X39.558 Y167.627 E95.35795
G1 X39.359 Y168.29 E95.40976
G1 X39.047 Y168.924 E95.46264
G1 X38.629 Y169.502 E95.51602
G0 F9000 X38.129 Y169.072
G1 F2700 E90.51602
G0 F9000 X38.658 Y167.566
G0 X44.907 Y138.355
G0 X44.576 Y138.171
;TYPE:SKIN
G1 F2700 E95.51602
G1 F4200 X44.746 Y135.141 E95.74312
G1 X45.344 Y125.429 E96.4713
G1 X45.669 Y120.254 E96.85934
G1 X45.674 Y120.253 E96.85972
G1 X47.152 Y96.837 E98.61555
G1 X47.62 Y90.884 E99.06242
G1 X48.092 Y87.529 E99.31596
G1 X48.614 Y85.622 E99.46392
G1 X49.295 Y84.114 E99.58775
G1 X50.305 Y82.572 E99.7257
G1 X51.637 Y81.077 E99.87554
G1 X53.37 Y79.621 E100.04493
G1 X55.584 Y78.246 E100.23996
G1 X58.457 Y76.933 E100.47635
G1 X61.118 Y75.962 E100.68833
G1 X62.157 Y75.616 E100.77029
G1 X63.327 Y75.242 E100.86221
G1 X70.492 Y73.249 E101.41876
G1 X76.471 Y71.855 E101.8782
G1 X76.679 Y71.812 E101.8941
G1 X86.26 Y69.892 E102.62535
G1 X87.875 Y69.612 E102.74801
G1 X87.876 Y69.583 E102.75018
G1 X97.61 Y68.275 E103.48517
G1 X107.335 Y67.447 E104.21558
G1 X112.065 Y67.207 E104.57001
G1 X122.935 Y67.207 E105.38347
G1 X127.655 Y67.446 E105.73714
G1 X137.393 Y68.276 E106.46853
G1 X141.735 Y68.854 E106.79633
G1 X146.848 Y69.542 E107.18241
G1 X146.845 Y69.561 E107.18385
G1 X148.899 Y69.921 E107.33991
G1 X158.532 Y71.854 E108.07517
G1 X164.508 Y73.249 E108.53441
G1 X171.781 Y75.275 E109.09941
G1 X172.835 Y75.613 E109.18224
G1 X173.882 Y75.962 E109.26483
G1 X176.543 Y76.933 E109.47681
G1 X179.416 Y78.246 E109.7132
G1 X181.63 Y79.621 E109.90824
G1 X183.363 Y81.077 E110.07762
G1 X184.695 Y82.572 E110.22747
G1 X185.705 Y84.114 E110.36541
G1 X186.386 Y85.622 E110.48924
G1 X186.908 Y87.529 E110.6372
G1 X187.38 Y90.884 E110.89075
G1 X187.847 Y96.813 E111.33582
G1 X190.04 Y131.564 E113.94159
G1 X190.255 Y135.138 E114.20954
G1 X190.424 Y138.172 E114.43694
G1 X188.213 Y134.181 E114.77838
G1 X185.28 Y129.569 E115.1874
G1 X182.039 Y125.162 E115.59678
G1 X178.508 Y120.985 E116.00609
G1 X174.703 Y117.054 E116.41551
G1 X170.641 Y113.39 E116.82488
G1 X166.344 Y110.009 E117.23406
G1 X161.825 Y106.925 E117.64349
G1 X157.109 Y104.151 E118.05294
G1 X152.217 Y101.702 E118.46234
G1 X147.173 Y99.59 E118.87157
G1 X141.995 Y97.822 E119.28103
G1 X136.713 Y96.408 E119.69023
G1 X131.344 Y95.353 E120.0997
G1 X125.919 Y94.661 E120.50897
G1 X125.408 Y94.631 E120.54728
G1 X120.976 Y94.356 E120.87959
G1 X114.023 Y94.355 E121.39992
G1 X109.08 Y94.661 E121.77054
G1 X103.656 Y95.353 E122.17973
G1 X98.287 Y96.408 E122.58921
G1 X93.005 Y97.822 E122.99841
G1 X87.827 Y99.59 E123.40787
G1 X82.783 Y101.702 E123.81709
G1 X77.891 Y104.151 E124.2265
G1 X73.175 Y106.925 E124.63595
G1 X68.656 Y110.009 E125.04538
G1 X64.359 Y113.39 E125.45455
G1 X60.297 Y117.054 E125.86393
G1 X56.492 Y120.985 E126.27334
G1 X52.961 Y125.162 E126.68265
G1 X49.72 Y129.569 E127.09204
G1 X46.787 Y134.181 E127.50106
G1 X44.576 Y138.171 E127.84243
G0 F9000 X44.907 Y138.355
G0 X45.637 Y137.037
G0 X45.095 Y136.736
G1 F4200 X44.906 Y136.547 E127.86243
G0 F9000 X45.398 Y136.19
G1 F4200 X44.952 Y135.744 E127.90963
G0 F9000 X45.701 Y135.645
G1 F4200 X44.997 Y134.941 E127.98414
G0 F9000 X45.046 Y134.141
G1 F4200 X46.003 Y135.099 E128.08548
G0 F9000 X46.306 Y134.553
G1 F4200 X45.095 Y133.342 E128.21364
G0 F9000 X45.145 Y132.543
G1 F4200 X46.611 Y134.01 E128.36884
G0 F9000 X46.941 Y133.491
G1 F4200 X45.194 Y131.743 E128.55379
G0 F9000 X45.243 Y130.944
G1 F4200 X47.271 Y132.972 E128.76842
G0 F9000 X47.601 Y132.453
G1 F4200 X45.293 Y130.145 E129.01268
G0 F9000 X45.341 Y129.346
G1 F4200 X47.93 Y131.934 E129.28663
G0 F9000 X48.26 Y131.416
